; generated by SuperSlicer 2.5.59 on 2023-11-12 at 19:23:26 UTC

; 

; external perimeters extrusion width = 0.84mm
; perimeters extrusion width = 0.88mm
; infill extrusion width = 0.88mm
; solid infill extrusion width = 0.88mm
; top infill extrusion width = 0.88mm
; first layer extrusion width = 0.96mm


;TYPE:Custom
START_PRINT BED_TEMP=40 EXTRUDER_TEMP=215
; Filament gcode
;_TOOLCHANGE 0
M107
;LAYER_CHANGE
;Z:0.6
;HEIGHT:0.6
;BEFORE_LAYER_CHANGE
;0.6


G1 E-1.5 F2100
G1 Z0.6 F10800
;AFTER_LAYER_CHANGE
;0.6
G92 E0
M204 S1000
G1 X10.647 Y213.425
G1 E1.5 F2100
;TYPE:Skirt
;WIDTH:0.96
G1 F1800
G1 X10.083 Y213.173 E1.62812
G1 X9.383 Y212.764 E1.79635
G1 X9.075 Y212.549 E1.87425
G1 X8.637 Y212.204 E1.98965
G1 X8.398 Y211.992 E2.05588
G1 X7.845 Y211.421 E2.22081
G1 X7.307 Y210.725 E2.40333
G1 X6.936 Y210.111 E2.55199
G92 E0
G1 E-0.75 F2100
;WIPE_START
G1 F1800
G1 X7.268 Y210.661 E-1.4625
;WIPE_END
G1 E-1.5 F2100
; acceleration to travel
M204 S1500
G1 X10.486 Y212.125 F10800
; decel to extrusion
M204 S1000
G1 X12.631 Y213.1
; end travel
G1 E0 F2100
G1 F1800
G1 X12.122 Y213.02 E0.10693
G1 X11.821 Y212.949 E0.17092
G1 X11.108 Y212.722 E0.32614
G1 X10.463 Y212.434 E0.47266
G1 X9.84 Y212.069 E0.62221
G1 X9.587 Y211.894 E0.68613
G1 X9.164 Y211.562 E0.79766
G1 X8.974 Y211.393 E0.85039
G1 X8.487 Y210.894 E0.99485
G1 X7.991 Y210.253 E1.16291
G1 X7.613 Y209.626 E1.31473
G1 X7.311 Y208.971 E1.46437
G1 X7.2 Y208.673 E1.53024
G1 X7.046 Y208.161 E1.64108
G1 X7.028 Y208.087 E1.65697
G1 X7.682 Y206.835 E1.94983
G1 X7.696 Y207.096 E2.00394
G1 X7.802 Y207.749 E2.14118
G1 X7.995 Y208.429 E2.28785
G1 X8.072 Y208.636 E2.33356
G1 X8.348 Y209.239 E2.4711
G1 X8.677 Y209.783 E2.60288
G1 X9.115 Y210.349 E2.75134
G1 X9.551 Y210.794 E2.88046
G1 X10.098 Y211.238 E3.02664
G1 X10.278 Y211.363 E3.07192
G1 X10.844 Y211.695 E3.20812
G1 X11.413 Y211.948 E3.33721
G1 X12.058 Y212.152 E3.4776
G1 X12.271 Y212.202 E3.52292
G1 X12.927 Y212.306 E3.66056
G1 X13.489 Y212.33 E3.77733
G1 X13.842 Y212.33 E3.85049
G1 X14.523 Y211.499 E4.07322
G1 X13.496 Y211.499 E4.28613
G1 X12.928 Y211.47 E4.4041
G1 X12.417 Y211.384 E4.51138
G1 X11.72 Y211.176 E4.66221
G1 X11.222 Y210.955 E4.7752
G1 X10.712 Y210.654 E4.89805
G1 X10.125 Y210.193 E5.05278
G1 X9.741 Y209.802 E5.16653
G1 X9.364 Y209.315 E5.2941
G1 X9.082 Y208.849 E5.40717
G1 X8.834 Y208.304 E5.53127
G1 X8.617 Y207.589 E5.68616
G1 X8.522 Y207.008 E5.80817
G1 X8.496 Y206.506 E5.91257
G1 X8.496 Y206.013 E6.01471
G1 X9.327 Y205.521 E6.21498
G1 X9.327 Y206.5 E6.41792
G1 X9.355 Y206.975 E6.51663
G1 X9.434 Y207.436 E6.6135
G1 X9.598 Y207.978 E6.73101
G1 X9.789 Y208.407 E6.82824
G1 X10.055 Y208.853 E6.93602
G1 X10.371 Y209.259 E7.04264
G1 X10.704 Y209.597 E7.14104
G1 X11.152 Y209.949 E7.25918
G1 X11.595 Y210.212 E7.36601
G1 X12.022 Y210.402 E7.46289
G1 X12.57 Y210.567 E7.5816
G1 X13.028 Y210.645 E7.67792
G1 X13.5 Y210.668 E7.77591
G1 X14.906 Y210.668 E8.0675
G92 E0
G1 E-0.75 F2100
;WIPE_START
G1 F1800
G1 X14.263 Y210.668 E-1.4625
;WIPE_END
G1 E-1.5 F2100
; acceleration to travel
M204 S1500
G1 X132.106 Y207.323 F10800
; decel to extrusion
M204 S1000
G1 X210.668 Y205.094
; end travel
G1 E0 F2100
G1 F1800
G1 X210.668 Y206.5 E0.2916
G1 X210.645 Y206.972 E0.38959
G1 X210.567 Y207.43 E0.4859
G1 X210.402 Y207.978 E0.60461
G1 X210.212 Y208.405 E0.70149
G1 X209.949 Y208.848 E0.80832
G1 X209.597 Y209.296 E0.92646
G1 X209.259 Y209.629 E1.02486
G1 X208.853 Y209.945 E1.13148
G1 X208.406 Y210.211 E1.23926
G1 X207.978 Y210.402 E1.33649
G1 X207.436 Y210.566 E1.45401
G1 X206.975 Y210.645 E1.55088
G1 X206.5 Y210.673 E1.64958
G1 X205.521 Y210.673 E1.85253
G1 X206.013 Y211.504 E2.05279
G1 X206.506 Y211.504 E2.15493
G1 X207.008 Y211.478 E2.25933
G1 X207.589 Y211.383 E2.38134
G1 X208.304 Y211.166 E2.53622
G1 X208.849 Y210.918 E2.66033
G1 X209.315 Y210.636 E2.77341
G1 X209.802 Y210.259 E2.90097
G1 X210.193 Y209.875 E3.01472
G1 X210.654 Y209.288 E3.16945
G1 X210.955 Y208.778 E3.2923
G1 X211.176 Y208.28 E3.40529
G1 X211.384 Y207.583 E3.55612
G1 X211.47 Y207.072 E3.6634
G1 X211.499 Y206.504 E3.78136
G1 X211.499 Y205.477 E3.99428
G1 X212.33 Y206.158 E4.21701
G1 X212.33 Y206.511 E4.29017
G1 X212.306 Y207.073 E4.40694
G1 X212.202 Y207.729 E4.54458
G1 X212.152 Y207.942 E4.58991
G1 X211.948 Y208.587 E4.73029
G1 X211.695 Y209.156 E4.85938
G1 X211.363 Y209.722 E4.99559
G1 X211.238 Y209.902 E5.04086
G1 X210.794 Y210.449 E5.18705
G1 X210.349 Y210.885 E5.31616
G1 X209.783 Y211.323 E5.46462
G1 X209.239 Y211.652 E5.59641
G1 X208.636 Y211.928 E5.73395
G1 X208.429 Y212.005 E5.77965
G1 X207.749 Y212.198 E5.92632
G1 X207.096 Y212.304 E6.06356
G1 X206.835 Y212.318 E6.11767
G1 X208.087 Y212.972 E6.41053
G1 X208.161 Y212.954 E6.42643
G1 X208.673 Y212.8 E6.53727
G1 X208.971 Y212.689 E6.60311
G1 X209.626 Y212.387 E6.75276
G1 X210.253 Y212.009 E6.90459
G1 X210.894 Y211.513 E7.07264
G1 X211.393 Y211.026 E7.21711
G1 X211.562 Y210.836 E7.26984
G1 X211.894 Y210.413 E7.38137
G1 X212.069 Y210.16 E7.44529
G1 X212.434 Y209.537 E7.59484
G1 X212.722 Y208.892 E7.74136
G1 X212.949 Y208.179 E7.89658
G1 X213.02 Y207.878 E7.96056
G1 X213.1 Y207.369 E8.0675
G92 E0
G1 E-0.75 F2100
;WIPE_START
G1 F1800
G1 X213.02 Y207.878 E-1.3216
G1 X212.991 Y208.002 E-1.4625
;WIPE_END
G1 E-1.5 F2100
G1 X213.425 Y209.353 F10800
G1 E0 F2100
G1 F1800
G1 X213.173 Y209.917 E0.12812
G1 X212.764 Y210.617 E0.29636
G1 X212.549 Y210.925 E0.37425
G1 X212.204 Y211.363 E0.48966
G1 X211.992 Y211.602 E0.55589
G1 X211.421 Y212.155 E0.72082
G1 X210.725 Y212.693 E0.90334
G1 X210.111 Y213.064 E1.05199
G92 E0
G1 E-0.75 F2100
;WIPE_START
G1 F1800
G1 X210.661 Y212.732 E-1.4625
;WIPE_END
G1 E-1.5 F2100
; acceleration to travel
M204 S1500
G1 X89.864 Y94.036 F10800
; decel to extrusion
M204 S1000
G1 X9.332 Y14.906
; end travel
G1 E0 F2100
G1 F1800
G1 X9.332 Y13.5 E0.29159
G1 X9.355 Y13.028 E0.38959
G1 X9.433 Y12.57 E0.4859
G1 X9.598 Y12.022 E0.60461
G1 X9.788 Y11.595 E0.70149
G1 X10.051 Y11.152 E0.80832
G1 X10.403 Y10.704 E0.92646
G1 X10.741 Y10.371 E1.02487
G1 X11.147 Y10.055 E1.13148
G1 X11.594 Y9.789 E1.23926
G1 X12.022 Y9.598 E1.33649
G1 X12.564 Y9.434 E1.454
G1 X13.025 Y9.355 E1.55088
G1 X13.5 Y9.327 E1.64958
G1 X14.479 Y9.327 E1.85253
G1 X13.987 Y8.496 E2.05279
G1 X13.494 Y8.496 E2.15493
G1 X12.992 Y8.522 E2.25933
G1 X12.411 Y8.617 E2.38134
G1 X11.696 Y8.834 E2.53622
G1 X11.151 Y9.082 E2.66033
G1 X10.685 Y9.364 E2.7734
G1 X10.198 Y9.741 E2.90097
G1 X9.807 Y10.125 E3.01472
G1 X9.346 Y10.712 E3.16945
G1 X9.045 Y11.222 E3.2923
G1 X8.824 Y11.72 E3.40529
G1 X8.616 Y12.417 E3.55612
G1 X8.53 Y12.928 E3.6634
G1 X8.501 Y13.496 E3.78137
G1 X8.501 Y14.523 E3.99428
G1 X7.67 Y13.842 E4.21701
G1 X7.67 Y13.489 E4.29017
G1 X7.694 Y12.927 E4.40695
G1 X7.798 Y12.271 E4.54458
G1 X7.848 Y12.058 E4.58991
G1 X8.052 Y11.413 E4.7303
G1 X8.305 Y10.844 E4.85939
G1 X8.637 Y10.278 E4.99559
G1 X8.761 Y10.098 E5.04085
G1 X9.206 Y9.551 E5.18705
G1 X9.651 Y9.115 E5.31616
G1 X10.217 Y8.677 E5.46463
G1 X10.761 Y8.348 E5.5964
G1 X11.364 Y8.072 E5.73395
G1 X11.571 Y7.995 E5.77965
G1 X12.251 Y7.802 E5.92632
G1 X12.904 Y7.696 E6.06357
G1 X13.165 Y7.682 E6.11765
G1 X11.913 Y7.028 E6.41047
G1 X11.839 Y7.046 E6.42636
G1 X11.327 Y7.2 E6.5372
G1 X11.029 Y7.311 E6.60305
G1 X10.374 Y7.613 E6.7527
G1 X9.747 Y7.991 E6.90452
G1 X9.106 Y8.487 E7.07258
G1 X8.607 Y8.974 E7.21704
G1 X8.438 Y9.164 E7.26978
G1 X8.106 Y9.587 E7.38132
G1 X7.931 Y9.84 E7.44522
G1 X7.566 Y10.463 E7.59477
G1 X7.278 Y11.108 E7.74129
G1 X7.051 Y11.821 E7.89652
G1 X6.98 Y12.122 E7.96051
G1 X6.9 Y12.631 E8.06744
G92 E0
G1 E-0.75 F2100
;WIPE_START
G1 F1800
G1 X6.98 Y12.122 E-1.32156
G1 X7.009 Y11.998 E-1.4625
;WIPE_END
G1 E-1.5 F2100
G1 X6.575 Y10.647 F10800
G1 E0 F2100
G1 F1800
G1 X6.827 Y10.083 E0.12815
G1 X7.236 Y9.383 E0.29637
G1 X7.451 Y9.075 E0.37424
G1 X7.796 Y8.637 E0.48966
G1 X8.008 Y8.398 E0.55589
G1 X8.579 Y7.845 E0.72082
G1 X9.275 Y7.307 E0.90336
G1 X9.889 Y6.936 E1.05199
M104 S215 ; set temperature
G92 E0
G1 E-0.75 F2100
;WIPE_START
G1 F1800
G1 X9.339 Y7.268 E-1.4625
;WIPE_END
G1 E-1.5 F2100
; acceleration to travel
M204 S1500
G1 X9.973 Y10.843 F10800
; decel to extrusion
M204 S800
G1 X10.311 Y12.75
; end travel
G1 E0 F2100
;TYPE:External perimeter
G1 F1804.5352
G1 X10.429 Y12.358 E0.08488
G1 X10.595 Y11.986 E0.16934
G1 X10.803 Y11.64 E0.25317
G1 X11.057 Y11.317 E0.33829
G1 X11.317 Y11.057 E0.41464
G1 X11.635 Y10.806 E0.49858
G1 X11.985 Y10.595 E0.58326
G1 X12.359 Y10.429 E0.66806
G1 X12.745 Y10.312 E0.75186
G1 X13.149 Y10.243 E0.83681
G1 X13.513 Y10.223 E0.91237
G1 X206.49 Y10.228 E40.92685
G1 X206.852 Y10.243 E41.00185
G1 X207.25 Y10.311 E41.0856
G1 X207.642 Y10.429 E41.17048
G1 X208.014 Y10.595 E41.25495
G1 X208.36 Y10.803 E41.33878
G1 X208.683 Y11.057 E41.4239
G1 X208.943 Y11.317 E41.50024
G1 X209.194 Y11.635 E41.58419
G1 X209.405 Y11.985 E41.66887
G1 X209.571 Y12.359 E41.75367
G1 X209.688 Y12.745 E41.83746
G1 X209.757 Y13.149 E41.92241
G1 X209.777 Y13.513 E41.99798
G1 X209.772 Y206.49 E82.01245
G1 X209.757 Y206.852 E82.08745
G1 X209.689 Y207.25 E82.17121
G1 X209.571 Y207.642 E82.25609
G1 X209.405 Y208.014 E82.34055
G1 X209.197 Y208.36 E82.42438
G1 X208.943 Y208.683 E82.5095
G1 X208.683 Y208.943 E82.58585
G1 X208.365 Y209.194 E82.66979
G1 X208.015 Y209.405 E82.75447
G1 X207.641 Y209.571 E82.83927
G1 X207.255 Y209.688 E82.92307
G1 X206.851 Y209.757 E83.00802
G1 X206.487 Y209.777 E83.08358
G1 X13.51 Y209.772 E123.09806
G1 X13.148 Y209.757 E123.17306
G1 X12.75 Y209.689 E123.25681
G1 X12.358 Y209.571 E123.34169
G1 X11.986 Y209.405 E123.42616
G1 X11.64 Y209.197 E123.50999
G1 X11.317 Y208.943 E123.59511
G1 X11.057 Y208.683 E123.67145
G1 X10.806 Y208.365 E123.7554
G1 X10.595 Y208.015 E123.84008
G1 X10.429 Y207.641 E123.92488
G1 X10.312 Y207.255 E124.00867
G1 X10.243 Y206.851 E124.09362
G1 X10.223 Y206.487 E124.16918
G1 X10.228 Y13.51 E164.18366
G1 X10.243 Y13.148 E164.25867
G1 X10.304 Y12.79 E164.33413
;WIPE_START
M204 S1000
G1 X11.081 Y12.535 F10800
;WIPE_END
M204 S800
G1 X11.122 Y12.941
;TYPE:Internal perimeter
G1 F1804.5352
G1 X11.21 Y12.648 E164.39751
G1 X11.333 Y12.371 E164.46046
G1 X11.489 Y12.113 E164.52292
G1 X11.68 Y11.87 E164.58707
G1 X11.87 Y11.679 E164.64287
G1 X12.109 Y11.491 E164.70593
G1 X12.37 Y11.334 E164.76919
G1 X12.649 Y11.21 E164.83245
G1 X12.937 Y11.122 E164.89482
G1 X13.242 Y11.07 E164.95911
G1 X13.536 Y11.054 E165.01999
G1 X206.473 Y11.059 E205.02627
G1 X206.764 Y11.071 E205.08667
G1 X207.059 Y11.122 E205.14866
G1 X207.352 Y11.21 E205.21205
G1 X207.629 Y11.333 E205.275
G1 X207.887 Y11.489 E205.33746
G1 X208.13 Y11.68 E205.40161
G1 X208.321 Y11.87 E205.4574
G1 X208.509 Y12.109 E205.52047
G1 X208.666 Y12.37 E205.58373
G1 X208.79 Y12.649 E205.64699
G1 X208.878 Y12.937 E205.70936
G1 X208.93 Y13.242 E205.77365
G1 X208.946 Y13.536 E205.83453
G1 X208.941 Y206.473 E245.84081
G1 X208.929 Y206.764 E245.90121
G1 X208.878 Y207.059 E245.9632
G1 X208.79 Y207.352 E246.02658
G1 X208.667 Y207.629 E246.08953
G1 X208.511 Y207.887 E246.15199
G1 X208.32 Y208.13 E246.21614
G1 X208.13 Y208.321 E246.27194
G1 X207.891 Y208.509 E246.33501
G1 X207.63 Y208.666 E246.39827
G1 X207.351 Y208.79 E246.46153
G1 X207.063 Y208.878 E246.5239
G1 X206.758 Y208.93 E246.58819
G1 X206.464 Y208.946 E246.64907
G1 X13.527 Y208.941 E286.65534
G1 X13.236 Y208.929 E286.71575
G1 X12.941 Y208.878 E286.77773
G1 X12.648 Y208.79 E286.84112
G1 X12.371 Y208.667 E286.90407
G1 X12.113 Y208.511 E286.96653
G1 X11.87 Y208.32 E287.03068
G1 X11.679 Y208.13 E287.08648
G1 X11.491 Y207.891 E287.14954
G1 X11.334 Y207.63 E287.21281
G1 X11.21 Y207.351 E287.27607
G1 X11.122 Y207.063 E287.33843
G1 X11.07 Y206.758 E287.40272
G1 X11.054 Y206.464 E287.4636
G1 X11.059 Y13.527 E327.46988
G1 X11.071 Y13.236 E327.53028
G1 X11.115 Y12.98 E327.58398
G1 X11.944 Y13.137 F10800
G1 F1804.5352
G1 X11.991 Y12.938 E327.62623
G1 X12.174 Y12.586 E327.70859
G1 X12.303 Y12.422 E327.75177
G1 X12.583 Y12.176 E327.82907
G1 X12.755 Y12.072 E327.87091
G1 X12.939 Y11.99 E327.91263
G1 X13.128 Y11.933 E327.95358
G1 X13.336 Y11.897 E327.99721
G1 X13.558 Y11.885 E328.04339
G1 X206.456 Y11.891 E368.04148
G1 X206.677 Y11.9 E368.08728
G1 X207.062 Y11.991 E368.16924
G1 X207.414 Y12.174 E368.25161
G1 X207.698 Y12.423 E368.3299
G1 X207.928 Y12.755 E368.41377
G1 X208.01 Y12.939 E368.45549
G1 X208.067 Y13.128 E368.49644
G1 X208.103 Y13.336 E368.54006
G1 X208.115 Y13.558 E368.58626
G1 X208.109 Y206.456 E408.58433
G1 X208.1 Y206.677 E408.63014
G1 X208.009 Y207.062 E408.7121
G1 X207.826 Y207.414 E408.79446
G1 X207.697 Y207.578 E408.83764
G1 X207.417 Y207.824 E408.91495
G1 X207.245 Y207.928 E408.95679
G1 X207.061 Y208.01 E408.99851
G1 X206.872 Y208.067 E409.03946
G1 X206.664 Y208.103 E409.08309
G1 X206.442 Y208.115 E409.12927
G1 X13.544 Y208.109 E449.12735
G1 X13.323 Y208.1 E449.17316
G1 X12.938 Y208.009 E449.25512
G1 X12.586 Y207.826 E449.33748
G1 X12.422 Y207.697 E449.38066
G1 X12.176 Y207.417 E449.45796
G1 X12.072 Y207.244 E449.49981
G1 X11.99 Y207.061 E449.54153
G1 X11.933 Y206.872 E449.58247
G1 X11.897 Y206.664 E449.6261
G1 X11.885 Y206.442 E449.67228
G1 X11.891 Y13.544 E489.67037
G1 X11.9 Y13.323 E489.71618
G1 X11.934 Y13.176 E489.7476
M204 S1000
G1 X12.622 Y13.338 F10800
;TYPE:Solid infill
G1 F1804.5352
G1 X12.658 Y13.187 E489.7799
G1 X12.818 Y12.91 E489.84617
G1 X12.985 Y12.763 E489.8923
G1 X13.187 Y12.658 E489.93957
G1 X13.436 Y12.599 E489.99259
G1 X13.577 Y12.592 E490.02189
G1 X206.442 Y12.597 E530.01301
G1 X206.58 Y12.603 E530.04175
G1 X206.813 Y12.658 E530.0914
G1 X207.012 Y12.761 E530.1379
G1 X207.167 Y12.897 E530.18046
G1 X207.337 Y13.165 E530.24646
G1 X207.401 Y13.436 E530.30412
G1 X207.408 Y13.577 E530.33342
G1 X207.403 Y206.442 E570.32453
G1 X207.397 Y206.58 E570.35327
G1 X207.342 Y206.813 E570.40292
G1 X207.182 Y207.09 E570.46918
G1 X207.015 Y207.237 E570.51532
G1 X206.813 Y207.342 E570.56259
G1 X206.564 Y207.401 E570.61562
G1 X206.423 Y207.408 E570.64492
G1 X13.558 Y207.403 E610.63603
G1 X13.42 Y207.397 E610.66477
G1 X13.187 Y207.342 E610.71442
G1 X12.91 Y207.182 E610.78068
G1 X12.763 Y207.015 E610.82682
G1 X12.658 Y206.813 E610.8741
G1 X12.599 Y206.564 E610.92711
G1 X12.592 Y206.423 E610.95641
G1 X12.597 Y13.558 E650.94753
G1 X12.603 Y13.42 E650.97627
G1 X12.613 Y13.377 E650.98533
G1 X13.428 Y13.423 F10800
G1 F1804.5352
G1 X206.577 Y13.428 E691.03536
G1 X206.572 Y206.577 E731.08539
G1 X13.423 Y206.572 E771.13542
G1 X13.428 Y13.463 E811.17716
G1 X14.26 Y14.254 F10800
G1 F1804.5352
G1 X205.746 Y14.26 E850.88247
G1 X205.74 Y205.746 E890.58778
G1 X14.254 Y205.74 E930.29309
G1 X14.26 Y14.294 E969.99011
G1 X15.091 Y15.086 F10800
G1 F1804.5352
G1 X204.914 Y15.091 E1009.3507
G1 X204.909 Y204.914 E1048.7113
G1 X15.086 Y204.909 E1088.07189
G1 X15.091 Y15.126 E1127.42418
G1 X15.922 Y15.917 F10800
G1 F1804.5352
G1 X204.083 Y15.922 E1166.44006
G1 X204.078 Y204.083 E1205.45593
G1 X15.917 Y204.078 E1244.4718
G1 X15.922 Y15.957 E1283.47938
G1 X16.753 Y16.748 F10800
G1 F1804.5352
G1 X203.252 Y16.753 E1322.15053
G1 X203.247 Y203.252 E1360.82168
G1 X16.748 Y203.247 E1399.49284
G1 X16.753 Y16.788 E1438.15569
G1 X17.584 Y17.579 F10800
G1 F1804.5352
G1 X202.421 Y17.584 E1476.48213
G1 X202.416 Y202.421 E1514.80856
G1 X17.579 Y202.416 E1553.13499
G1 X17.584 Y17.619 E1591.45313
G1 X18.416 Y18.411 F10800
G1 F1804.5352
G1 X201.589 Y18.416 E1629.43484
G1 X201.584 Y201.589 E1667.41655
G1 X18.411 Y201.584 E1705.39827
G1 X18.416 Y18.451 E1743.37168
G1 X19.247 Y19.242 F10800
G1 F1804.5352
G1 X200.758 Y19.247 E1781.00868
G1 X200.753 Y200.758 E1818.64567
G1 X19.242 Y200.753 E1856.28266
G1 X19.247 Y19.282 E1893.91136
G1 X20.078 Y20.073 F10800
G1 F1804.5352
G1 X199.927 Y20.078 E1931.20363
G1 X199.922 Y199.927 E1968.49591
G1 X20.073 Y199.922 E2005.78818
G1 X20.078 Y20.113 E2043.07216
G1 X20.909 Y20.904 F10800
G1 F1804.5352
G1 X199.096 Y20.909 E2080.01971
G1 X199.091 Y199.096 E2116.96726
G1 X20.904 Y199.091 E2153.91482
G1 X20.909 Y20.944 E2190.85407
G1 X21.74 Y21.736 F10800
G1 F1804.5352
G1 X198.264 Y21.74 E2227.45691
G1 X198.26 Y198.264 E2264.05974
G1 X21.736 Y198.26 E2300.66257
G1 X21.74 Y21.776 E2337.25711
G1 X22.572 Y22.567 F10800
G1 F1804.5352
