; generated by SuperSlicer 2.5.59 on 2023-11-19 at 12:06:15 UTC

; 

; external perimeters extrusion width = 1.12mm
; perimeters extrusion width = 1.12mm
; infill extrusion width = 1.12mm
; solid infill extrusion width = 1.12mm
; top infill extrusion width = 1.12mm
; first layer extrusion width = 1.12mm

; external perimeters extrusion width = 1.12mm
; perimeters extrusion width = 1.12mm
; infill extrusion width = 1.12mm
; solid infill extrusion width = 1.12mm
; top infill extrusion width = 1.12mm
; first layer extrusion width = 1.12mm

; external perimeters extrusion width = 1.12mm
; perimeters extrusion width = 1.12mm
; infill extrusion width = 1.12mm
; solid infill extrusion width = 1.12mm
; top infill extrusion width = 1.12mm
; first layer extrusion width = 1.12mm

; external perimeters extrusion width = 1.12mm
; perimeters extrusion width = 1.12mm
; infill extrusion width = 1.12mm
; solid infill extrusion width = 1.12mm
; top infill extrusion width = 1.12mm
; first layer extrusion width = 1.12mm

; external perimeters extrusion width = 1.12mm
; perimeters extrusion width = 1.12mm
; infill extrusion width = 1.12mm
; solid infill extrusion width = 1.12mm
; top infill extrusion width = 1.12mm
; first layer extrusion width = 1.12mm

; object:{"name":"patch_bed_leveling","id":"patch_bed_leveling id:0 copy 0","object_center":[30.000000,190.000000,0.000000],"boundingbox_center":[30.000000,190.000000,2.973075],"boundingbox_size":[20.000119,42.866029,5.946150]}
EXCLUDE_OBJECT_DEFINE NAME=patch_bed_leveling_id_0_copy_0 CENTER=30.000000,190.000000 POLYGON=[[19.999940,172.125760],[19.999998,168.566992],[40.000000,168.566992],[40.000060,172.125760],[40.000000,211.433008],[19.999998,211.433008],[19.999940,172.125760]]
; object:{"name":"patch_bed_leveling","id":"patch_bed_leveling id:1 copy 0","object_center":[190.000000,30.000000,0.000000],"boundingbox_center":[190.000000,30.000000,2.973075],"boundingbox_size":[20.000119,42.866029,5.946150]}
EXCLUDE_OBJECT_DEFINE NAME=patch_bed_leveling_id_1_copy_0 CENTER=190.000000,30.000000 POLYGON=[[179.999936,47.874228],[180.000000,8.566986],[200.000000,8.566986],[200.000064,47.874228],[200.000000,51.433016],[180.000000,51.433016],[179.999936,47.874228]]
; object:{"name":"patch_bed_leveling","id":"patch_bed_leveling id:2 copy 0","object_center":[110.000000,110.000000,0.000000],"boundingbox_center":[110.000000,110.000000,2.973075],"boundingbox_size":[44.452999,44.452999,5.946150]}
EXCLUDE_OBJECT_DEFINE NAME=patch_bed_leveling_id_2_copy_0 CENTER=110.000000,110.000000 POLYGON=[[87.773496,101.915640],[101.915640,87.773496],[104.432120,90.289904],[132.226504,118.084360],[118.084360,132.226504],[90.289904,104.432120],[87.773496,101.915640]]
; object:{"name":"patch_bed_leveling","id":"patch_bed_leveling id:3 copy 0","object_center":[30.000000,30.000000,0.000000],"boundingbox_center":[30.000000,30.000000,2.973075],"boundingbox_size":[42.866029,20.000119,5.946150]}
EXCLUDE_OBJECT_DEFINE NAME=patch_bed_leveling_id_3_copy_0 CENTER=30.000000,30.000000 POLYGON=[[8.566986,19.999998],[47.874228,19.999940],[51.433016,19.999998],[51.433016,40.000000],[47.874228,40.000060],[8.566986,40.000000],[8.566986,19.999998]]
; object:{"name":"patch_bed_leveling","id":"patch_bed_leveling id:4 copy 0","object_center":[190.000000,190.000000,0.000000],"boundingbox_center":[190.000000,190.000000,2.973075],"boundingbox_size":[42.866029,20.000119,5.946150]}
EXCLUDE_OBJECT_DEFINE NAME=patch_bed_leveling_id_4_copy_0 CENTER=190.000000,190.000000 POLYGON=[[168.566992,180.000000],[172.125760,179.999936],[211.433008,180.000000],[211.433008,200.000000],[172.125760,200.000064],[168.566992,200.000000],[168.566992,180.000000]]
; plater:{"center":[110.000000,110.000000,0.000000],"boundingbox_center":[110.000000,110.000000,2.973075],"boundingbox_size":[202.866029,202.866029,5.946150]}

;TYPE:Custom
SET_PRINT_STATS_INFO TOTAL_LAYER=60
START_PRINT BED_TEMP=55 EXTRUDER_TEMP=225
; Filament gcode
;_TOOLCHANGE 0
M107
;LAYER_CHANGE
;Z:0.6
;HEIGHT:0.6
;BEFORE_LAYER_CHANGE
;0.6


G1 Z0.6 F10800
;AFTER_LAYER_CHANGE
;0.6
SET_PRINT_STATS_INFO CURRENT_LAYER=1
G1 E-0.5 F2100
M204 S1000
G1 X20.05 Y166.757 F10800
G1 E0 F2100
;TYPE:Skirt
;WIDTH:1.04
M107
G1 F1800
G1 X18.081 Y167.373 E0.46888
G1 X16.989 Y168.61 E0.84407
G1 X16.594 Y170.213 E1.21927
G1 X16.594 Y211.383 E10.57762
G1 X17.21 Y213.352 E11.0465
G1 X18.447 Y214.444 E11.4217
G1 X20.05 Y214.839 E11.7969
G1 X39.95 Y214.839 E16.32036
G1 X41.919 Y214.223 E16.78924
G1 X43.011 Y212.986 E17.16443
G1 X43.406 Y211.383 E17.53963
G1 X43.406 Y170.213 E26.89798
G1 X42.79 Y168.244 E27.36686
G1 X41.553 Y167.152 E27.74206
G1 X39.95 Y166.757 E28.11726
G1 X20.17 Y166.757 E32.61341
M107
M104 S225 ; set temperature
G92 E0
;WIPE_START
G1 F8640
G1 X22.227 Y166.757 E-0.475
;WIPE_END
G1 E-0.5 F2100
; printing object patch_bed_leveling id:0 copy 0
EXCLUDE_OBJECT_START NAME=patch_bed_leveling_id_0_copy_0
; acceleration to travel
M204 S1500
G1 X21.705 Y170.938 F10800
; decel to extrusion
M204 S800
G1 X21.601 Y171.764
; end travel
G1 E0 F2100
;TYPE:Internal perimeter
;WIDTH:1.119999
M107
G1 F1800
G1 X38.399 Y171.764 E4.15341
G1 X38.399 Y180.163 E6.23012
G1 X38.399 Y209.832 E13.56622
G1 X21.601 Y209.832 E17.71966
G1 X21.601 Y171.884 E27.10279
M107
G92 E0
;WIPE_START
G1 F8640
M204 S1000
G1 X21.601 Y173.941 E-0.475
;WIPE_END
G1 E-0.5 F2100
; acceleration to travel
M204 S1500
G1 X20.774 Y171.295 F10800
; decel to extrusion
M204 S800
G1 X20.61 Y170.773
; end travel
G1 E0 F2100
;TYPE:External perimeter
M107
G1 F1800
G1 X39.39 Y170.773 E4.64361
G1 X39.39 Y180.163 E6.96542
G1 X39.39 Y210.823 E14.54661
G1 X20.61 Y210.823 E19.19025
G1 X20.61 Y170.893 E29.06358
M107
;WIPE_START
M204 S1000
G1 X21.303 Y171.173 F10800
;WIPE_END
G92 E0
;WIPE_START
G1 F8640
G1 X23.36 Y171.173 E-0.475
;WIPE_END
G1 E-0.5 F2100
; acceleration to travel
M204 S1500
G1 X22.821 Y201.86 F10800
; decel to extrusion
M204 S1000
G1 X22.688 Y209.435
; end travel
G1 E0 F2100
;TYPE:Solid infill
;WIDTH:1.127841
M107
G1 F1800
G1 X22.688 Y172.587 E9.17514
G1 X23.679 Y172.587 E9.42195
G1 X23.679 Y209.009 E18.49096
G1 X24.67 Y209.009 E18.73778
G1 X24.67 Y172.587 E27.80678
G1 X25.661 Y172.587 E28.0536
G1 X25.661 Y209.009 E37.12261
G1 X26.653 Y209.009 E37.36942
G1 X26.653 Y172.587 E46.43843
G1 X27.644 Y172.587 E46.68524
G1 X27.644 Y209.009 E55.75425
G1 X28.635 Y209.009 E56.00107
G1 X28.635 Y172.587 E65.07008
G1 X29.626 Y172.587 E65.31689
G1 X29.626 Y209.009 E74.3859
G1 X30.618 Y209.009 E74.63271
G1 X30.618 Y172.587 E83.70172
G1 X31.609 Y172.587 E83.94854
G1 X31.609 Y209.009 E93.01754
G1 X32.6 Y209.009 E93.26436
G1 X32.6 Y172.587 E102.33337
G1 X33.591 Y172.587 E102.58018
G1 X33.591 Y209.009 E111.64919
G1 X34.582 Y209.009 E111.896
G1 X34.582 Y172.587 E120.96501
G1 X35.574 Y172.587 E121.21183
G1 X35.574 Y209.009 E130.28083
G1 X36.565 Y209.009 E130.52765
G1 X36.565 Y172.587 E139.59666
G1 X37.556 Y172.587 E139.84347
G1 X37.556 Y209.435 E149.01861
M107
;LAYER_CHANGE
;Z:1.1
;HEIGHT:0.5
;BEFORE_LAYER_CHANGE
;1.1


; stop printing object patch_bed_leveling id:0 copy 0
EXCLUDE_OBJECT_END NAME=patch_bed_leveling_id_0_copy_0
G1 Z1.1 F10800
;AFTER_LAYER_CHANGE
;1.1
SET_PRINT_STATS_INFO CURRENT_LAYER=2
M140 S55 ; set bed temperature
G92 E0
G1 E-0.5 F2100
; printing object patch_bed_leveling id:0 copy 0
EXCLUDE_OBJECT_START NAME=patch_bed_leveling_id_0_copy_0
; acceleration to travel
M204 S1500
G1 X26.38 Y184.917 F10800
; decel to extrusion
M204 S800
G1 X20.42 Y171.841
; end travel
G1 E0 F2100
;TYPE:External perimeter
;WIDTH:0.84
M107
G1 F1800
G1 X20.42 Y170.371 E0.2238
G1 X39.58 Y170.371 E3.14205
G1 X39.58 Y171.106 E3.25395
G1 X39.58 Y171.841 E3.36585
G1 X20.54 Y171.841 E6.26583
M107
;WIPE_START
M204 S1000
G1 X20.82 Y171.148 F10800
;WIPE_END
M204 S800
G1 X21.155 Y171.106
;TYPE:Internal perimeter
;WIDTH:0.843967
M107
G1 F3600
G1 X38.845 Y171.106 E8.97488
M107
M106 S127.5
;LAYER_CHANGE
;Z:1.6
;HEIGHT:0.5
;BEFORE_LAYER_CHANGE
;1.6


; stop printing object patch_bed_leveling id:0 copy 0
EXCLUDE_OBJECT_END NAME=patch_bed_leveling_id_0_copy_0
M204 S1000
G1 Z1.6 F10800
;AFTER_LAYER_CHANGE
;1.6
SET_PRINT_STATS_INFO CURRENT_LAYER=3
; printing object patch_bed_leveling id:0 copy 0
EXCLUDE_OBJECT_START NAME=patch_bed_leveling_id_0_copy_0
M204 S800
G1 X39.58 Y171.648
;TYPE:External perimeter
;WIDTH:0.84
M106 S127.5
G1 F1800
G1 X20.42 Y171.648 E11.89314
G1 X20.42 Y170.179 E12.11694
G1 X39.58 Y170.179 E15.03519
G1 X39.58 Y170.913 E15.14709
G1 X39.58 Y171.528 E15.24072
M106 S127.5
;WIPE_START
M204 S1000
G1 X38.887 Y171.248 F10800
;WIPE_END
M204 S800
G1 X38.845 Y170.913
;TYPE:Internal perimeter
;WIDTH:0.843977
M106 S127.5
G1 F3600
G1 X21.155 Y170.913 E17.9498
M106 S127.5
M106 S255
;LAYER_CHANGE
;Z:2.1
;HEIGHT:0.5
;BEFORE_LAYER_CHANGE
;2.1


; stop printing object patch_bed_leveling id:0 copy 0
EXCLUDE_OBJECT_END NAME=patch_bed_leveling_id_0_copy_0
M204 S1000
G1 Z2.1 F10800
;AFTER_LAYER_CHANGE
;2.1
SET_PRINT_STATS_INFO CURRENT_LAYER=4
; printing object patch_bed_leveling id:0 copy 0
EXCLUDE_OBJECT_START NAME=patch_bed_leveling_id_0_copy_0
M204 S800
G1 X20.42 Y171.456
;TYPE:External perimeter
;WIDTH:0.84
M106 S255
G1 F1800
G1 X20.42 Y169.986 E18.1736
G1 X39.58 Y169.986 E21.09186
G1 X39.58 Y170.721 E21.20376
G1 X39.58 Y171.456 E21.31566
G1 X20.54 Y171.456 E24.21564
M106 S255
;WIPE_START
M204 S1000
G1 X20.82 Y170.763 F10800
;WIPE_END
M204 S800
G1 X21.155 Y170.721
;TYPE:Internal perimeter
;WIDTH:0.843989
M106 S255
G1 F3600
G1 X38.845 Y170.721 E26.92477
M106 S255
;LAYER_CHANGE
;Z:2.6
;HEIGHT:0.5
;BEFORE_LAYER_CHANGE
;2.6


; stop printing object patch_bed_leveling id:0 copy 0
EXCLUDE_OBJECT_END NAME=patch_bed_leveling_id_0_copy_0
M204 S1000
G1 Z2.6 F10800
;AFTER_LAYER_CHANGE
;2.6
SET_PRINT_STATS_INFO CURRENT_LAYER=5
; printing object patch_bed_leveling id:0 copy 0
EXCLUDE_OBJECT_START NAME=patch_bed_leveling_id_0_copy_0
M204 S800
G1 X38.845 Y171.263
;TYPE:External perimeter
;WIDTH:0.84
M106 S255
G1 F1800
G1 X20.42 Y171.263 E29.73112
G1 X20.42 Y169.794 E29.95493
G1 X39.58 Y169.794 E32.87319
G1 X39.58 Y171.263 E33.09699
G1 X38.965 Y171.263 E33.19062
M106 S255
;WIPE_START
M204 S1000
G1 X38.445 Y170.57 F10800
;WIPE_END
M204 S800
G1 X38.845 Y170.529
;TYPE:Internal perimeter
;WIDTH:0.844001
M106 S255
G1 F3600
G1 X21.155 Y170.529 E35.89978
M106 S255
;LAYER_CHANGE
;Z:3.1
;HEIGHT:0.5
;BEFORE_LAYER_CHANGE
;3.1


; stop printing object patch_bed_leveling id:0 copy 0
EXCLUDE_OBJECT_END NAME=patch_bed_leveling_id_0_copy_0
M204 S1000
G1 Z3.1 F10800
;AFTER_LAYER_CHANGE
;3.1
SET_PRINT_STATS_INFO CURRENT_LAYER=6
; printing object patch_bed_leveling id:0 copy 0
EXCLUDE_OBJECT_START NAME=patch_bed_leveling_id_0_copy_0
M204 S800
G1 X20.42 Y171.071
;TYPE:External perimeter
;WIDTH:0.84
M106 S255
G1 F1800
G1 X20.42 Y169.601 E36.12359
G1 X39.58 Y169.601 E39.04185
G1 X39.58 Y170.336 E39.15375
G1 X39.58 Y171.071 E39.26566
G1 X20.54 Y171.071 E42.16564
M106 S255
;WIPE_START
M204 S1000
G1 X20.82 Y170.378 F10800
;WIPE_END
M204 S800
G1 X21.155 Y170.336
;TYPE:Internal perimeter
;WIDTH:0.844013
M106 S255
G1 F3600
G1 X38.845 Y170.336 E44.87485
M106 S255
;LAYER_CHANGE
;Z:3.6
;HEIGHT:0.5
;BEFORE_LAYER_CHANGE
;3.6


; stop printing object patch_bed_leveling id:0 copy 0
EXCLUDE_OBJECT_END NAME=patch_bed_leveling_id_0_copy_0
M204 S1000
G1 Z3.6 F10800
;AFTER_LAYER_CHANGE
;3.6
SET_PRINT_STATS_INFO CURRENT_LAYER=7
; printing object patch_bed_leveling id:0 copy 0
EXCLUDE_OBJECT_START NAME=patch_bed_leveling_id_0_copy_0
M204 S800
G1 X39.58 Y170.878
;TYPE:External perimeter
;WIDTH:0.84
M106 S255
G1 F1800
G1 X20.42 Y170.878 E47.79311
G1 X20.42 Y169.409 E48.01692
G1 X39.58 Y169.409 E50.93518
G1 X39.58 Y170.144 E51.04709
G1 X39.58 Y170.758 E51.14071
M106 S255
;WIPE_START
M204 S1000
G1 X38.887 Y170.478 F10800
;WIPE_END
M204 S800
G1 X38.845 Y170.144
;TYPE:Internal perimeter
;WIDTH:0.844025
M106 S255
G1 F3600
G1 X21.155 Y170.144 E53.84997
M106 S255
;LAYER_CHANGE
;Z:4.1
;HEIGHT:0.5
;BEFORE_LAYER_CHANGE
;4.1


; stop printing object patch_bed_leveling id:0 copy 0
EXCLUDE_OBJECT_END NAME=patch_bed_leveling_id_0_copy_0
M204 S1000
G1 Z4.1 F10800
;AFTER_LAYER_CHANGE
;4.1
SET_PRINT_STATS_INFO CURRENT_LAYER=8
; printing object patch_bed_leveling id:0 copy 0
EXCLUDE_OBJECT_START NAME=patch_bed_leveling_id_0_copy_0
M204 S800
G1 X20.42 Y170.686
;TYPE:External perimeter
;WIDTH:0.84
M106 S255
G1 F1800
G1 X20.42 Y169.216 E54.07378
G1 X39.58 Y169.216 E56.99204
G1 X39.58 Y169.951 E57.10395
G1 X39.58 Y170.686 E57.21585
G1 X20.54 Y170.686 E60.11584
M106 S255
;WIPE_START
M204 S1000
G1 X20.82 Y169.993 F10800
;WIPE_END
M204 S800
G1 X21.155 Y169.951
;TYPE:Internal perimeter
;WIDTH:0.844037
M106 S255
G1 F3600
G1 X38.845 Y169.951 E62.82514
M106 S255
;LAYER_CHANGE
;Z:4.6
;HEIGHT:0.5
;BEFORE_LAYER_CHANGE
;4.6


; stop printing object patch_bed_leveling id:0 copy 0
EXCLUDE_OBJECT_END NAME=patch_bed_leveling_id_0_copy_0
M204 S1000
G1 Z4.6 F10800
;AFTER_LAYER_CHANGE
;4.6
SET_PRINT_STATS_INFO CURRENT_LAYER=9
; printing object patch_bed_leveling id:0 copy 0
EXCLUDE_OBJECT_START NAME=patch_bed_leveling_id_0_copy_0
M204 S800
G1 X39.58 Y170.493
;TYPE:External perimeter
;WIDTH:0.84
M106 S255
G1 F1800
G1 X20.42 Y170.493 E65.7434
G1 X20.42 Y169.024 E65.96721
G1 X39.58 Y169.024 E68.88548
G1 X39.58 Y169.759 E68.99738
G1 X39.58 Y170.373 E69.09101
M106 S255
;WIPE_START
M204 S1000
G1 X38.887 Y170.093 F10800
;WIPE_END
M204 S800
G1 X38.845 Y169.759
;TYPE:Internal perimeter
;WIDTH:0.844049
M106 S255
G1 F3600
G1 X21.155 Y169.759 E71.80035
M106 S255
;LAYER_CHANGE
;Z:5.1
;HEIGHT:0.5
;BEFORE_LAYER_CHANGE
;5.1


; stop printing object patch_bed_leveling id:0 copy 0
EXCLUDE_OBJECT_END NAME=patch_bed_leveling_id_0_copy_0
M204 S1000
G1 Z5.1 F10800
;AFTER_LAYER_CHANGE
;5.1
SET_PRINT_STATS_INFO CURRENT_LAYER=10
; printing object patch_bed_leveling id:0 copy 0
EXCLUDE_OBJECT_START NAME=patch_bed_leveling_id_0_copy_0
M204 S800
G1 X20.449 Y170.272
;TYPE:External perimeter
;WIDTH:0.897483
M106 S255
G1 F1800
G1 X20.449 Y169.482 E71.93015
G1 X39.551 Y169.482 E75.06792
G1 X39.551 Y169.877 E75.13282
G1 X39.551 Y170.272 E75.19771
G1 X20.569 Y170.272 E78.31577
M106 S255
;WIPE_START
M204 S1000
G1 X20.849 Y169.579 F10800
;WIPE_END
;LAYER_CHANGE
;Z:5.6
;HEIGHT:0.5
;BEFORE_LAYER_CHANGE
;5.6


; stop printing object patch_bed_leveling id:0 copy 0
EXCLUDE_OBJECT_END NAME=patch_bed_leveling_id_0_copy_0
G1 Z5.6 F10800
;AFTER_LAYER_CHANGE
;5.6
SET_PRINT_STATS_INFO CURRENT_LAYER=11
; printing object patch_bed_leveling id:0 copy 0
EXCLUDE_OBJECT_START NAME=patch_bed_leveling_id_0_copy_0
M204 S800
G1 X20.459 Y170.07
;WIDTH:0.917853
M106 S255
G1 F1800
G1 X39.541 Y170.07 E81.53099
M106 S255
G92 E0
;WIPE_START
G1 F8640
M204 S1000
G1 X37.484 Y170.07 E-0.475
;WIPE_END
G1 E-0.5 F2100
G92 E0
; stop printing object patch_bed_leveling id:0 copy 0
EXCLUDE_OBJECT_END NAME=patch_bed_leveling_id_0_copy_0
G1 X190 Y30 F10800
M107
;LAYER_CHANGE
;Z:0.6
;HEIGHT:0.6
;BEFORE_LAYER_CHANGE
;0.6


G1 Z0.6 F10800
;AFTER_LAYER_CHANGE
;0.6
SET_PRINT_STATS_INFO CURRENT_LAYER=12
; acceleration to travel
M204 S1500
G1 X179.249 Y30
; decel to extrusion
M204 S1000
G1 X176.594 Y30
; end travel
G1 E0.5 F2100
;TYPE:Skirt
;WIDTH:1.04
M107
G1 F1800
G1 X176.594 Y49.787 E4.99779
G1 X177.21 Y51.756 E5.46666
G1 X178.447 Y52.848 E5.84186
G1 X180.05 Y53.243 E6.21706
G1 X199.95 Y53.243 E10.74049
G1 X201.919 Y52.627 E11.20936
G1 X203.011 Y51.39 E11.58456
G1 X203.406 Y49.787 E11.95976
G1 X203.406 Y8.617 E21.31811
G1 X202.79 Y6.648 E21.78699
G1 X201.553 Y5.556 E22.16219
G1 X199.95 Y5.161 E22.53739
G1 X180.05 Y5.161 E27.06085
G1 X178.081 Y5.777 E27.52972
G1 X176.989 Y7.014 E27.90492
G1 X176.594 Y8.617 E28.28012
G1 X176.594 Y29.88 E33.11341
M107
G92 E0
;WIPE_START
G1 F8640
G1 X176.594 Y27.823 E-0.475
;WIPE_END
G1 E-0.5 F2100
; printing object patch_bed_leveling id:1 copy 0
EXCLUDE_OBJECT_START NAME=patch_bed_leveling_id_1_copy_0
; acceleration to travel
M204 S1500
G1 X180.776 Y44.869 F10800
; decel to extrusion
M204 S800
G1 X181.601 Y48.236
; end travel
G1 E0 F2100
;TYPE:Internal perimeter
;WIDTH:1.119999
M107
G1 F1800
G1 X181.601 Y10.168 E9.4128
