; generated by SuperSlicer 2.5.59 on 2023-11-21 at 21:34:45 UTC

; 

; external perimeters extrusion width = 1.12mm
; perimeters extrusion width = 1.12mm
; infill extrusion width = 1.12mm
; solid infill extrusion width = 1.12mm
; top infill extrusion width = 1.12mm
; first layer extrusion width = 1.12mm

; object:{"name":"Containers50x50_hex","id":"Containers50x50_hex.STL id:0 copy 0","object_center":[110.000000,110.000000,0.000000],"boundingbox_center":[110.000000,110.000000,13.500000],"boundingbox_size":[50.000002,50.000002,27.000000]}
EXCLUDE_OBJECT_DEFINE NAME=Containers50x50_hex_STL_id_0_copy_0 CENTER=110.000000,110.000000 POLYGON=[[85.000000,90.000000],[85.022184,89.529456],[85.061552,89.217824],[85.136400,88.840088],[85.177216,88.680632],[85.244720,88.454912],[85.318912,88.242888],[85.475864,87.871104],[85.544968,87.730040],[85.573136,87.675584],[85.909248,87.124968],[85.954912,87.061072],[86.280632,86.658392],[86.464464,86.464464],[86.658392,86.280632],[87.061072,85.954912],[87.124968,85.909248],[87.673032,85.574480],[87.730040,85.544968],[87.871104,85.475864],[88.242560,85.319040],[88.454912,85.244720],[88.680632,85.177216],[88.832760,85.138152],[89.217824,85.061552],[89.529456,85.022184],[90.000000,85.000000],[130.000000,85.000000],[130.470536,85.022184],[130.782168,85.061552],[131.159912,85.136400],[131.319368,85.177216],[131.545072,85.244720],[131.757112,85.318912],[132.128888,85.475864],[132.269960,85.544968],[132.324400,85.573136],[132.875032,85.909248],[132.938920,85.954912],[133.341600,86.280632],[133.535536,86.464464],[133.719360,86.658392],[134.045088,87.061072],[134.090744,87.124968],[134.425520,87.673032],[134.455040,87.730040],[134.524144,87.871104],[134.680976,88.242560],[134.755280,88.454912],[134.822784,88.680632],[134.861840,88.832760],[134.938448,89.217824],[134.977808,89.529456],[135.000000,90.000000],[135.000000,130.000000],[134.977808,130.470536],[134.938448,130.782168],[134.863600,131.159912],[134.822784,131.319368],[134.755280,131.545072],[134.681088,131.757112],[134.524144,132.128888],[134.455040,132.269960],[134.426864,132.324400],[134.090744,132.875032],[134.045088,132.938920],[133.719360,133.341600],[133.535536,133.535536],[133.341600,133.719360],[132.938920,134.045088],[132.875032,134.090744],[132.326968,134.425520],[132.269960,134.455040],[132.128888,134.524144],[131.757448,134.680976],[131.545072,134.755280],[131.319368,134.822784],[131.167240,134.861840],[130.782168,134.938448],[130.470536,134.977808],[130.000000,135.000000],[90.000000,135.000000],[89.529456,134.977808],[89.217824,134.938448],[88.840088,134.863600],[88.680632,134.822784],[88.454912,134.755280],[88.242888,134.681088],[87.871104,134.524144],[87.730040,134.455040],[87.675584,134.426864],[87.124968,134.090744],[87.061072,134.045088],[86.658392,133.719360],[86.464464,133.535536],[86.280632,133.341600],[85.954912,132.938920],[85.909248,132.875032],[85.574480,132.326968],[85.544968,132.269960],[85.475864,132.128888],[85.319040,131.757448],[85.244720,131.545072],[85.177216,131.319368],[85.138152,131.167240],[85.061552,130.782168],[85.022184,130.470536],[85.000000,130.000000],[85.000000,90.000000]]
; plater:{"center":[110.000000,110.000000,0.000000],"boundingbox_center":[110.000000,110.000000,13.500000],"boundingbox_size":[50.000002,50.000002,27.000000]}

;TYPE:Custom
SET_PRINT_STATS_INFO TOTAL_LAYER=54
START_PRINT BED_TEMP=55 EXTRUDER_TEMP=225
; Filament gcode
;_TOOLCHANGE 0
M107
;LAYER_CHANGE
;Z:0.6
;HEIGHT:0.6
;BEFORE_LAYER_CHANGE
;0.6


G1 Z0.6 F8400
;AFTER_LAYER_CHANGE
;0.6
SET_PRINT_STATS_INFO CURRENT_LAYER=1
G1 E-0.5 F2100
M204 S1000
G1 X84.532 Y85.379 F8400
G1 E0 F2100
;TYPE:Skirt
;WIDTH:1.04
M107
G1 F1800
G1 X83.376 Y87.283 E0.50644
G1 X82.99 Y88.547 E0.80686
G1 X82.842 Y89.81 E1.09579
G1 X82.837 Y129.999 E10.23107
G1 X82.992 Y131.462 E10.56559
G1 X83.566 Y133.14 E10.96872
G1 X84.25 Y134.265 E11.26807
G1 X85.379 Y135.468 E11.64295
G1 X87.283 Y136.624 E12.14939
G1 X88.547 Y137.01 E12.44981
G1 X89.81 Y137.158 E12.73874
G1 X129.999 Y137.163 E21.87402
G1 X131.462 Y137.008 E22.20854
G1 X133.14 Y136.434 E22.61167
G1 X134.265 Y135.75 E22.91102
G1 X135.468 Y134.621 E23.2859
G1 X136.624 Y132.717 E23.79234
G1 X137.01 Y131.453 E24.09276
G1 X137.158 Y130.19 E24.38169
G1 X137.134 Y89.396 E33.65465
G1 X136.909 Y88.123 E33.94839
G1 X136.434 Y86.86 E34.25518
G1 X135.75 Y85.735 E34.55452
G1 X134.921 Y84.799 E34.83861
G1 X133.908 Y84.001 E35.13183
G1 X132.717 Y83.376 E35.43757
G1 X131.453 Y82.99 E35.73799
G1 X130.19 Y82.842 E36.02693
G1 X89.808 Y82.843 E45.20607
G1 X88.123 Y83.091 E45.59326
G1 X86.86 Y83.566 E45.90005
G1 X85.735 Y84.25 E46.19939
G1 X84.62 Y85.297 E46.54701
M107
M104 S225 ; set temperature
G92 E0
;WIPE_START
G1 F6720
G1 X85.735 Y84.25 E-0.45399
G1 X85.795 Y84.213 E-0.475
;WIPE_END
G1 E-0.5 F2100
; printing object Containers50x50_hex.STL id:0 copy 0
EXCLUDE_OBJECT_START NAME=Containers50x50_hex_STL_id_0_copy_0
; acceleration to travel
M204 S1500
G1 X87.663 Y88.313 F8400
; decel to extrusion
M204 S800
G1 X88.039 Y89.138
; end travel
G1 E0 F2100
;TYPE:Internal perimeter
;WIDTH:1.119999
M107
G1 F1800
G1 X88.211 Y88.807 E0.09237
G1 X88.593 Y88.374 E0.23508
G1 X88.998 Y88.094 E0.35687
G1 X89.497 Y87.907 E0.48858
G1 X90.045 Y87.844 E0.62493
G1 X129.77 Y87.844 E10.44757
G1 X130.239 Y87.883 E10.56396
G1 X130.757 Y87.985 E10.69449
G1 X131.193 Y88.211 E10.81606
G1 X131.626 Y88.593 E10.95876
G1 X131.906 Y88.998 E11.08056
G1 X132.093 Y89.497 E11.21227
G1 X132.156 Y90.108 E11.36406
G1 X132.156 Y129.77 E21.17117
G1 X132.117 Y130.239 E21.28755
G1 X132.015 Y130.757 E21.41808
G1 X131.789 Y131.193 E21.53965
G1 X131.407 Y131.626 E21.68236
G1 X131.002 Y131.906 E21.80415
G1 X130.503 Y132.093 E21.93586
G1 X129.955 Y132.156 E22.07222
G1 X90.23 Y132.156 E31.89485
G1 X89.761 Y132.117 E32.01124
G1 X89.243 Y132.015 E32.14177
G1 X88.807 Y131.789 E32.26334
G1 X88.374 Y131.407 E32.40605
G1 X88.094 Y131.002 E32.52784
G1 X87.907 Y130.503 E32.65955
G1 X87.844 Y129.955 E32.7959
G1 X87.844 Y90.23 E42.61854
G1 X87.883 Y89.761 E42.73492
G1 X87.984 Y89.245 E42.86498
M107
G92 E0
;WIPE_START
G1 F6720
M204 S1000
G1 X87.883 Y89.761 E-0.15615
G1 X87.844 Y90.23 E-0.29589
G1 X87.844 Y90.833 E-0.475
;WIPE_END
G1 E-0.5 F2100
; acceleration to travel
M204 S1500
G1 X87.095 Y89.521 F8400
; decel to extrusion
M204 S800
G1 X86.944 Y89.257
; end travel
G1 E0 F2100
;TYPE:External perimeter
M107
G1 F1800
G1 X87.152 Y88.678 E0.15206
G1 X87.409 Y88.217 E0.28269
G1 X87.908 Y87.652 E0.46906
G1 X88.383 Y87.309 E0.61395
G1 X88.894 Y87.055 E0.75518
G1 X89.473 Y86.905 E0.90294
G1 X90.017 Y86.853 E1.03812
G1 X129.968 Y86.853 E10.91655
G1 X130.743 Y86.944 E11.10953
G1 X131.322 Y87.152 E11.26158
G1 X131.783 Y87.409 E11.39222
G1 X132.348 Y87.908 E11.57859
G1 X132.691 Y88.383 E11.72347
G1 X132.945 Y88.894 E11.86471
G1 X133.095 Y89.473 E12.01247
G1 X133.147 Y90.108 E12.16995
G1 X133.147 Y129.968 E22.02599
G1 X133.056 Y130.743 E22.21897
G1 X132.848 Y131.322 E22.37103
G1 X132.591 Y131.783 E22.50166
G1 X132.092 Y132.348 E22.68803
G1 X131.617 Y132.691 E22.83292
G1 X131.106 Y132.945 E22.97415
G1 X130.527 Y133.095 E23.12191
G1 X129.983 Y133.147 E23.25709
G1 X90.032 Y133.147 E33.13552
G1 X89.257 Y133.056 E33.3285
G1 X88.678 Y132.848 E33.48056
G1 X88.217 Y132.591 E33.61119
G1 X87.652 Y132.092 E33.79756
G1 X87.309 Y131.617 E33.94245
G1 X87.055 Y131.106 E34.08368
G1 X86.905 Y130.527 E34.23144
G1 X86.853 Y129.983 E34.36662
G1 X86.853 Y90.032 E44.24505
G1 X86.93 Y89.376 E44.40836
M107
;WIPE_START
M204 S1000
G1 X87.718 Y89.055 F8400
;WIPE_END
G92 E0
;WIPE_START
G1 F6720
G1 X87.738 Y88.449 E-0.17996
G1 X88.178 Y87.95 E-0.37772
G1 X88.444 Y87.758 E-0.475
;WIPE_END
G1 E-0.5 F2100
; acceleration to travel
M204 S1500
G1 X88.703 Y89.2 F8400
; decel to extrusion
M204 S1000
G1 X88.768 Y89.563
; end travel
G1 E0 F2100
;TYPE:Solid infill
;WIDTH:1.12
M107
G1 F1800
G1 X88.911 Y89.286 E0.07698
G1 X89.156 Y89.009 E0.1684
G1 X89.413 Y88.832 E0.2456
G1 X89.516 Y88.786 E0.27359
G1 X89.889 Y88.697 E0.3683
G1 X90.068 Y88.687 E0.41269
G1 X129.999 Y88.703 E10.28623
G1 X130.337 Y88.743 E10.37026
G1 X130.629 Y88.854 E10.44771
G1 X130.991 Y89.156 E10.56422
G1 X131.168 Y89.413 E10.64142
G1 X131.214 Y89.516 E10.66942
G1 X131.303 Y89.889 E10.76412
G1 X131.313 Y90.068 E10.80855
G1 X131.313 Y129.86 E20.64775
G1 X131.232 Y130.437 E20.79187
G1 X131.089 Y130.714 E20.86885
G1 X130.844 Y130.991 E20.96027
G1 X130.587 Y131.168 E21.03747
G1 X130.484 Y131.214 E21.06547
G1 X130.111 Y131.303 E21.16017
G1 X129.932 Y131.313 E21.20461
G1 X90.14 Y131.313 E31.0438
G1 X89.563 Y131.232 E31.18792
G1 X89.286 Y131.089 E31.2649
G1 X89.009 Y130.844 E31.35632
G1 X88.832 Y130.587 E31.43352
G1 X88.786 Y130.484 E31.46151
G1 X88.697 Y130.111 E31.55622
G1 X88.687 Y129.932 E31.60065
G1 X88.687 Y90.14 E41.43985
G1 X88.751 Y89.681 E41.5543
M107
; acceleration to travel
M204 S1500
G1 X89.336 Y89.75 F8400
; decel to extrusion
M204 S1000
G1 X89.725 Y89.796
; end travel
M107
G1 F1800
G1 X89.739 Y89.678 E41.58374
G1 X130.322 Y89.694 E51.61857
G1 X130.322 Y129.802 E61.53588
G1 X130.261 Y130.322 E61.66534
G1 X90.198 Y130.322 E71.5716
G1 X89.678 Y130.261 E71.70106
G1 X89.678 Y90.198 E81.60731
G1 X89.711 Y89.915 E81.67769
M107
G92 E0
;WIPE_START
G1 F6720
G1 X89.678 Y90.198 E-0.0845
G1 X89.678 Y91.513 E-0.475
;WIPE_END
G1 E-0.5 F2100
; acceleration to travel
M204 S1500
G1 X90.47 Y90.839 F8400
; decel to extrusion
M204 S1000
G1 X90.669 Y90.669
; end travel
G1 E0 F2100
M107
G1 F1800
G1 X129.331 Y90.685 E9.55976
G1 X129.331 Y129.331 E19.11555
G1 X90.669 Y129.331 E28.6753
G1 X90.669 Y90.789 E38.20532
M107
G92 E0
;WIPE_START
G1 F6720
G1 X90.669 Y92.389 E-0.475
;WIPE_END
G1 E-0.5 F2100
; acceleration to travel
M204 S1500
G1 X91.461 Y91.807 F8400
; decel to extrusion
M204 S1000
G1 X91.66 Y91.661
; end travel
G1 E0 F2100
M107
G1 F1800
G1 X128.34 Y91.676 E9.06956
G1 X128.34 Y128.34 E18.13525
G1 X91.66 Y128.34 E27.20481
G1 X91.66 Y91.781 E36.24453
M107
G92 E0
;WIPE_START
G1 F6720
G1 X91.66 Y93.381 E-0.475
;WIPE_END
G1 E-0.5 F2100
; acceleration to travel
M204 S1500
G1 X92.452 Y92.799 F8400
; decel to extrusion
M204 S1000
G1 X92.652 Y92.653
; end travel
G1 E0 F2100
M107
G1 F1800
G1 X127.348 Y92.667 E8.57936
G1 X127.348 Y127.348 E17.15495
G1 X92.652 Y127.348 E25.73431
G1 X92.652 Y92.773 E34.28374
M107
G92 E0
;WIPE_START
G1 F6720
G1 X92.652 Y94.373 E-0.475
;WIPE_END
G1 E-0.5 F2100
; acceleration to travel
M204 S1500
G1 X93.444 Y93.791 F8400
; decel to extrusion
M204 S1000
G1 X93.643 Y93.644
; end travel
G1 E0 F2100
M107
G1 F1800
G1 X126.357 Y93.658 E8.08916
G1 X126.357 Y126.357 E16.17466
G1 X93.643 Y126.357 E24.26382
G1 X93.643 Y93.764 E32.32295
M107
G92 E0
;WIPE_START
G1 F6720
G1 X93.643 Y95.364 E-0.475
;WIPE_END
G1 E-0.5 F2100
; acceleration to travel
M204 S1500
G1 X94.435 Y94.782 F8400
; decel to extrusion
M204 S1000
G1 X94.634 Y94.636
; end travel
G1 E0 F2100
M107
G1 F1800
G1 X125.366 Y94.648 E7.59896
G1 X125.366 Y125.366 E15.19436
G1 X94.634 Y125.366 E22.79333
G1 X94.634 Y94.756 E30.36216
M107
G92 E0
;WIPE_START
G1 F6720
G1 X94.634 Y96.356 E-0.475
;WIPE_END
G1 E-0.5 F2100
; acceleration to travel
M204 S1500
G1 X95.426 Y95.774 F8400
; decel to extrusion
M204 S1000
G1 X95.625 Y95.628
; end travel
G1 E0 F2100
M107
G1 F1800
G1 X124.375 Y95.639 E7.10877
G1 X124.375 Y124.375 E14.21407
G1 X95.625 Y124.375 E21.32283
G1 X95.625 Y95.748 E28.40136
M107
G92 E0
;WIPE_START
G1 F6720
G1 X95.625 Y97.348 E-0.475
;WIPE_END
G1 E-0.5 F2100
; acceleration to travel
M204 S1500
G1 X96.417 Y96.766 F8400
; decel to extrusion
M204 S1000
G1 X96.616 Y96.619
; end travel
G1 E0 F2100
M107
G1 F1800
G1 X123.384 Y96.63 E6.61857
G1 X123.384 Y123.384 E13.23377
G1 X96.616 Y123.384 E19.85234
G1 X96.616 Y96.739 E26.44057
M107
G92 E0
;WIPE_START
G1 F6720
G1 X96.616 Y98.339 E-0.475
;WIPE_END
G1 E-0.5 F2100
; acceleration to travel
M204 S1500
G1 X97.408 Y97.757 F8400
; decel to extrusion
M204 S1000
G1 X97.608 Y97.611
; end travel
G1 E0 F2100
M107
G1 F1800
G1 X122.392 Y97.621 E6.12837
G1 X122.392 Y122.392 E12.25347
G1 X97.608 Y122.392 E18.38184
G1 X97.608 Y97.731 E24.47978
M107
G92 E0
;WIPE_START
G1 F6720
G1 X97.608 Y99.331 E-0.475
;WIPE_END
G1 E-0.5 F2100
; acceleration to travel
M204 S1500
G1 X98.4 Y98.749 F8400
; decel to extrusion
M204 S1000
G1 X98.599 Y98.602
; end travel
G1 E0 F2100
M107
G1 F1800
G1 X121.401 Y98.612 E5.63817
G1 X121.401 Y121.401 E11.27318
G1 X98.599 Y121.401 E16.91135
G1 X98.599 Y98.722 E22.51899
M107
G92 E0
;WIPE_START
G1 F6720
G1 X98.599 Y100.322 E-0.475
;WIPE_END
G1 E-0.5 F2100
; acceleration to travel
M204 S1500
G1 X99.391 Y99.74 F8400
; decel to extrusion
M204 S1000
G1 X99.59 Y99.594
; end travel
G1 E0 F2100
M107
G1 F1800
G1 X120.41 Y99.603 E5.14797
G1 X120.41 Y120.41 E10.29288
G1 X99.59 Y120.41 E15.44086
G1 X99.59 Y99.714 E20.5582
M107
G92 E0
;WIPE_START
G1 F6720
G1 X99.59 Y101.314 E-0.475
;WIPE_END
G1 E-0.5 F2100
; acceleration to travel
M204 S1500
G1 X100.382 Y100.732 F8400
; decel to extrusion
M204 S1000
G1 X100.581 Y100.586
; end travel
G1 E0 F2100
M107
G1 F1800
G1 X119.419 Y100.593 E4.65778
G1 X119.419 Y119.419 E9.31259
G1 X100.581 Y119.419 E13.97036
G1 X100.581 Y100.706 E18.5974
M107
G92 E0
;WIPE_START
G1 F6720
G1 X100.581 Y102.306 E-0.475
;WIPE_END
G1 E-0.5 F2100
; acceleration to travel
M204 S1500
G1 X101.373 Y101.724 F8400
; decel to extrusion
M204 S1000
G1 X101.573 Y101.577
; end travel
G1 E0 F2100
M107
G1 F1800
G1 X118.427 Y101.584 E4.16758
G1 X118.427 Y118.427 E8.33229
G1 X101.573 Y118.427 E12.49987
G1 X101.573 Y101.697 E16.63661
M107
G92 E0
;WIPE_START
G1 F6720
G1 X101.573 Y103.297 E-0.475
;WIPE_END
G1 E-0.5 F2100
; acceleration to travel
M204 S1500
G1 X102.365 Y102.715 F8400
; decel to extrusion
M204 S1000
G1 X102.564 Y102.569
; end travel
G1 E0 F2100
M107
G1 F1800
G1 X117.436 Y102.575 E3.67738
G1 X117.436 Y117.436 E7.35199
G1 X102.564 Y117.436 E11.02937
G1 X102.564 Y102.689 E14.67582
M107
G92 E0
;WIPE_START
G1 F6720
G1 X102.564 Y104.289 E-0.475
;WIPE_END
G1 E-0.5 F2100
; acceleration to travel
M204 S1500
G1 X103.356 Y103.707 F8400
; decel to extrusion
M204 S1000
G1 X103.555 Y103.561
; end travel
G1 E0 F2100
M107
G1 F1800
G1 X116.445 Y103.566 E3.18718
G1 X116.445 Y116.445 E6.3717
G1 X103.555 Y116.445 E9.55888
G1 X103.555 Y103.681 E12.71503
M107
G92 E0
;WIPE_START
G1 F6720
G1 X103.555 Y105.281 E-0.475
;WIPE_END
G1 E-0.5 F2100
; acceleration to travel
M204 S1500
G1 X104.347 Y104.699 F8400
; decel to extrusion
M204 S1000
G1 X104.546 Y104.552
; end travel
G1 E0 F2100
M107
G1 F1800
G1 X115.454 Y104.557 E2.69698
G1 X115.454 Y115.454 E5.3914
G1 X104.546 Y115.454 E8.08839
G1 X104.546 Y104.672 E10.75424
M107
G92 E0
;WIPE_START
G1 F6720
G1 X104.546 Y106.272 E-0.475
;WIPE_END
G1 E-0.5 F2100
; acceleration to travel
M204 S1500
G1 X105.338 Y105.69 F8400
; decel to extrusion
M204 S1000
G1 X105.538 Y105.544
; end travel
G1 E0 F2100
M107
G1 F1800
G1 X114.462 Y105.548 E2.20679
G1 X114.462 Y114.462 E4.41111
G1 X105.538 Y114.462 E6.61789
G1 X105.538 Y105.664 E8.79344
M107
G92 E0
;WIPE_START
G1 F6720
G1 X105.538 Y107.264 E-0.475
;WIPE_END
G1 E-0.5 F2100
; acceleration to travel
M204 S1500
G1 X106.33 Y106.682 F8400
; decel to extrusion
M204 S1000
G1 X106.529 Y106.536
; end travel
G1 E0 F2100
M107
G1 F1800
G1 X113.471 Y106.538 E1.71659
G1 X113.471 Y113.471 E3.43081
G1 X106.529 Y113.471 E5.1474
G1 X106.529 Y106.656 E6.83265
M107
G92 E0
;WIPE_START
G1 F6720
G1 X106.529 Y108.256 E-0.475
;WIPE_END
G1 E-0.5 F2100
; acceleration to travel
M204 S1500
G1 X107.321 Y107.674 F8400
; decel to extrusion
M204 S1000
G1 X107.52 Y107.527
; end travel
G1 E0 F2100
M107
G1 F1800
G1 X112.48 Y107.529 E1.22639
G1 X112.48 Y112.48 E2.45052
G1 X107.52 Y112.48 E3.67691
G1 X107.52 Y107.647 E4.87186
M107
G92 E0
;WIPE_START
G1 F6720
G1 X107.52 Y109.247 E-0.475
;WIPE_END
G1 E-0.5 F2100
; acceleration to travel
M204 S1500
G1 X108.312 Y108.665 F8400
; decel to extrusion
M204 S1000
G1 X108.511 Y108.519
; end travel
G1 E0 F2100
M107
G1 F1800
G1 X111.489 Y108.52 E0.73619
G1 X111.489 Y111.489 E1.47022
G1 X108.511 Y111.489 E2.20641
G1 X108.511 Y108.639 E2.91107
M107
;LAYER_CHANGE
;Z:1.1
;HEIGHT:0.5
