; generated by SuperSlicer 2.5.59 on 2023-11-12 at 20:17:16 UTC

; 

; external perimeters extrusion width = 0.84mm
; perimeters extrusion width = 0.88mm
; infill extrusion width = 0.88mm
; solid infill extrusion width = 0.88mm
; top infill extrusion width = 0.88mm
; support material extrusion width = 0.88mm
; first layer extrusion width = 1.12mm


;TYPE:Custom
START_PRINT BED_TEMP=40 EXTRUDER_TEMP=220
; Filament gcode
;_TOOLCHANGE 0
M107
;LAYER_CHANGE
;Z:0.6
;HEIGHT:0.6
;BEFORE_LAYER_CHANGE
;0.6


G1 E-1 F2100
G1 Z0.6 F10800
;AFTER_LAYER_CHANGE
;0.6
G92 E0
M204 S1000
G1 X84.57 Y141.419
G1 E1 F2100
;TYPE:Skirt
;WIDTH:1.12
G1 F1513.2577
G1 X82.304 Y141.419 E1.56028
G1 X81.827 Y141.324 E1.68057
G1 X81.106 Y141.016 E1.87442
G1 X80.787 Y140.791 E1.97078
G1 X79.659 Y139.65 E2.36767
G1 X79.451 Y139.32 E2.46403
G1 X79.188 Y138.686 E2.6339
G1 X79.093 Y138.208 E2.75419
G1 X79.093 Y135.943 E3.31447
G1 X80.084 Y134.842 E3.68074
G1 X80.084 Y138.16 E4.50116
G1 X80.122 Y138.351 E4.54944
G1 X80.348 Y138.896 E4.69523
G1 X80.456 Y139.058 E4.74351
G1 X81.454 Y140.056 E5.09234
G1 X81.616 Y140.164 E5.14062
G1 X82.161 Y140.39 E5.28641
G1 X82.353 Y140.428 E5.33469
G1 X85.67 Y140.428 E6.1551
G1 X86.248 Y139.437 E6.43881
G1 X82.45 Y139.437 E7.37797
G1 X82.086 Y139.286 E7.47548
G1 X81.226 Y138.426 E7.77603
G1 X81.075 Y138.062 E7.87354
G1 X81.075 Y134.264 E8.8127
G1 X82.065 Y134.007 E9.06551
G1 X82.067 Y137.865 E10.01953
G1 X82.647 Y138.446 E10.22258
G1 X86.506 Y138.446 E11.17665
G92 E0
;WIPE_START
G1 F8640
G1 X82.647 Y138.446 E-0.89094
G1 X82.466 Y138.265 E-0.95
;WIPE_END
G1 E-1 F2100
; acceleration to travel
M204 S1500
G1 X90.791 Y122.827 F10800
; decel to extrusion
M204 S1000
G1 X92.829 Y119.048
; end travel
G1 E0 F2100
G1 F1513.2577
G1 X92.833 Y118.978 E0.01719
G1 X92.789 Y118.225 E0.20369
G1 X92.665 Y117.54 E0.37595
G1 X92.464 Y116.878 E0.54701
G1 X92.209 Y116.27 E0.70998
G1 X91.892 Y115.79 E0.85225
G1 X91.642 Y115.525 E0.94242
G1 X91.529 Y115.435 E0.97809
G1 X91.178 Y115.231 E1.07834
G1 X90.986 Y115.146 E1.13037
G1 X90.876 Y115.113 E1.15875
G1 X90.488 Y115.046 E1.25614
G1 X86.855 Y115.055 E2.15449
G1 X86.433 Y115.056 E2.25881
G1 X83.748 Y115.063 E2.92261
G1 X83.255 Y115.213 E3.04997
G1 X83.112 Y115.283 E3.08961
G1 X82.696 Y115.578 E3.21553
G1 X82.578 Y115.696 E3.25693
G1 X82.283 Y116.112 E3.38285
G1 X82.213 Y116.255 E3.42249
G1 X82.063 Y116.748 E3.54986
G1 X82.057 Y117.021 E3.61715
G1 X82.059 Y120.325 E4.43416
G1 X81.075 Y120.033 E4.68782
G1 X81.075 Y117.157 E5.3989
G1 X81.065 Y117.067 E5.42134
G1 X81.074 Y116.66 E5.52211
G1 X81.095 Y116.526 E5.5556
G1 X81.276 Y115.93 E5.70961
G1 X81.451 Y115.571 E5.80849
G1 X81.793 Y115.089 E5.95464
G1 X82.089 Y114.793 E6.05786
G1 X82.571 Y114.451 E6.20401
G1 X82.855 Y114.305 E6.28318
G1 X83.526 Y114.095 E6.45692
G1 X83.66 Y114.074 E6.49041
G1 X84.067 Y114.065 E6.59119
G1 X85.903 Y114.06 E7.04503
G1 X87.129 Y114.057 E7.34837
G1 X90.462 Y114.049 E8.17243
G1 X91.074 Y114.141 E8.32534
G1 X91.294 Y114.203 E8.38205
G1 X91.636 Y114.352 E8.47411
G1 X92.057 Y114.595 E8.59456
G1 X92.339 Y114.819 E8.68356
G1 X92.628 Y115.126 E8.78772
G1 X92.756 Y115.287 E8.8386
G1 X93.002 Y115.656 E8.94814
G1 X93.114 Y115.865 E9.00687
G1 X93.393 Y116.531 E9.18545
G1 X93.646 Y117.381 E9.40479
G1 X93.782 Y118.182 E9.60556
G1 X93.785 Y118.229 E9.61727
G1 X94.544 Y116.929 E9.98947
G1 X94.324 Y116.191 E10.17991
G1 X94.024 Y115.471 E10.37279
G1 X93.894 Y115.217 E10.44327
G1 X93.575 Y114.728 E10.58762
G1 X93.411 Y114.517 E10.65377
G1 X93.024 Y114.102 E10.79416
G1 X92.719 Y113.848 E10.8921
G1 X92.57 Y113.747 E10.93661
G1 X91.991 Y113.421 E11.10098
G1 X91.697 Y113.294 E11.18015
G1 X91.369 Y113.192 E11.26518
G1 X90.773 Y113.084 E11.415
G1 X90.447 Y113.056 E11.49582
G1 X87.726 Y113.068 E12.16861
G1 X88.928 Y112.071 E12.55478
G1 X90.437 Y112.065 E12.92785
G1 X90.828 Y112.091 E13.02483
G1 X91.447 Y112.194 E13.17992
G1 X91.876 Y112.308 E13.28974
G1 X92.106 Y112.39 E13.34995
G1 X92.56 Y112.598 E13.47363
G1 X93.137 Y112.932 E13.6383
G1 X93.54 Y113.234 E13.76294
G1 X93.753 Y113.429 E13.83414
G1 X94.11 Y113.81 E13.9634
G1 X94.324 Y114.073 E14.04735
G1 X94.666 Y114.58 E14.19839
G92 E0
;WIPE_START
G1 F8640
G1 X94.324 Y114.073 E-0.14104
G1 X94.11 Y113.81 E-0.21945
G1 X93.753 Y113.429 E-0.34015
G1 X93.54 Y113.234 E-0.40664
G1 X93.137 Y112.932 E-0.52303
G1 X92.56 Y112.598 E-0.6768
G1 X92.106 Y112.39 E-0.79229
G1 X91.876 Y112.308 E-0.84853
G1 X91.452 Y112.195 E-0.95
;WIPE_END
G1 E-1 F2100
; acceleration to travel
M204 S1500
G1 X86.181 Y112.906 F10800
; decel to extrusion
M204 S1000
G1 X84.891 Y113.08
; end travel
G1 E0 F2100
G1 F1513.2577
G1 X84.206 Y113.083 E0.16936
G1 X84.08 Y113.073 E0.20073
G1 X83.605 Y113.083 E0.31824
G1 X83.271 Y113.136 E0.40183
G1 X82.586 Y113.346 E0.57902
G1 X82.185 Y113.529 E0.68785
G1 X82.014 Y113.631 E0.73729
G1 X81.369 Y114.103 E0.93476
G1 X81.023 Y114.465 E1.05867
G1 X80.631 Y115.014 E1.22525
G1 X80.529 Y115.185 E1.27469
G1 X80.333 Y115.623 E1.39337
G1 X80.121 Y116.337 E1.57737
G1 X80.083 Y116.605 E1.64428
G1 X80.073 Y117.08 E1.76178
G1 X80.084 Y117.214 E1.79516
G1 X80.084 Y119.411 E2.33833
G1 X79.093 Y118.107 E2.74328
G1 X79.093 Y117.272 E2.94999
G1 X79.082 Y117.076 E2.9985
G1 X79.095 Y116.533 E3.13271
G1 X79.145 Y116.164 E3.22468
G1 X79.387 Y115.326 E3.44037
G1 X79.511 Y115.01 E3.5244
G1 X79.653 Y114.723 E3.60361
G1 X79.806 Y114.465 E3.67777
G1 X80.258 Y113.834 E3.86981
G1 X80.423 Y113.645 E3.93175
G1 X80.722 Y113.353 E4.03509
G1 X80.916 Y113.194 E4.09703
G1 X81.448 Y112.817 E4.25834
G1 X81.74 Y112.643 E4.34237
G1 X82.143 Y112.462 E4.45153
G92 E0
;WIPE_START
G1 F8640
G1 X81.74 Y112.643 E-0.10194
G1 X81.448 Y112.817 E-0.18041
G1 X80.916 Y113.194 E-0.33104
G1 X80.722 Y113.353 E-0.38889
G1 X80.423 Y113.645 E-0.48538
G1 X80.258 Y113.834 E-0.54322
G1 X79.806 Y114.465 E-0.72256
G1 X79.653 Y114.723 E-0.79181
G1 X79.511 Y115.01 E-0.86578
G1 X79.387 Y115.326 E-0.94425
G1 X79.38 Y115.35 E-0.95
;WIPE_END
G1 E-1 F2100
; acceleration to travel
M204 S1500
G1 X83.549 Y111.389 F10800
; decel to extrusion
M204 S1000
G1 X84.57 Y110.419
; end travel
G1 E0 F2100
G1 F1513.2577
G1 X82.304 Y110.419 E0.56028
G1 X81.827 Y110.324 E0.68057
G1 X81.106 Y110.016 E0.87442
G1 X80.787 Y109.791 E0.97078
G1 X79.659 Y108.65 E1.36767
G1 X79.451 Y108.32 E1.46403
G1 X79.188 Y107.686 E1.6339
G1 X79.093 Y107.208 E1.75419
G1 X79.093 Y104.943 E2.31447
G1 X80.084 Y103.842 E2.68074
G1 X80.084 Y107.16 E3.50116
G1 X80.122 Y107.351 E3.54944
G1 X80.348 Y107.896 E3.69523
G1 X80.456 Y108.058 E3.74351
G1 X81.454 Y109.056 E4.09234
G1 X81.616 Y109.164 E4.14062
G1 X82.161 Y109.39 E4.28641
G1 X82.353 Y109.428 E4.33469
G1 X85.67 Y109.428 E5.1551
G1 X86.248 Y108.437 E5.43881
G1 X82.45 Y108.437 E6.37797
G1 X82.086 Y108.286 E6.47548
G1 X81.226 Y107.426 E6.77603
G1 X81.075 Y107.062 E6.87354
G1 X81.075 Y103.264 E7.8127
G1 X82.065 Y103.007 E8.06551
G1 X82.067 Y106.865 E9.01953
G1 X82.647 Y107.446 E9.22258
G1 X86.506 Y107.446 E10.17665
G92 E0
;WIPE_START
G1 F8640
G1 X82.647 Y107.446 E-0.89094
G1 X82.466 Y107.265 E-0.95
;WIPE_END
G1 E-1 F2100
; acceleration to travel
M204 S1500
G1 X90.791 Y91.827 F10800
; decel to extrusion
M204 S1000
G1 X92.829 Y88.048
; end travel
G1 E0 F2100
G1 F1513.2577
G1 X92.833 Y87.978 E0.01719
G1 X92.789 Y87.225 E0.20369
G1 X92.665 Y86.54 E0.37595
G1 X92.464 Y85.878 E0.54701
G1 X92.209 Y85.27 E0.70998
G1 X91.892 Y84.79 E0.85225
G1 X91.642 Y84.525 E0.94242
G1 X91.529 Y84.435 E0.97809
G1 X91.178 Y84.231 E1.07834
G1 X90.986 Y84.146 E1.13037
G1 X90.876 Y84.113 E1.15875
G1 X90.488 Y84.046 E1.25614
G1 X86.855 Y84.055 E2.15449
G1 X86.433 Y84.056 E2.25881
G1 X83.748 Y84.063 E2.92261
G1 X83.255 Y84.213 E3.04997
G1 X83.112 Y84.283 E3.08961
G1 X82.696 Y84.578 E3.21553
G1 X82.578 Y84.696 E3.25693
G1 X82.283 Y85.112 E3.38285
G1 X82.213 Y85.255 E3.42249
G1 X82.063 Y85.748 E3.54986
G1 X82.057 Y86.021 E3.61715
G1 X82.059 Y89.325 E4.43416
G1 X81.075 Y89.033 E4.68782
G1 X81.075 Y86.157 E5.3989
G1 X81.065 Y86.067 E5.42134
G1 X81.074 Y85.66 E5.52211
G1 X81.095 Y85.526 E5.5556
G1 X81.276 Y84.93 E5.70961
G1 X81.451 Y84.571 E5.80849
G1 X81.793 Y84.089 E5.95464
G1 X82.089 Y83.793 E6.05786
G1 X82.571 Y83.451 E6.20401
G1 X82.855 Y83.305 E6.28318
G1 X83.526 Y83.095 E6.45692
G1 X83.66 Y83.074 E6.49041
G1 X84.067 Y83.065 E6.59119
G1 X85.903 Y83.06 E7.04503
G1 X87.129 Y83.057 E7.34837
G1 X90.462 Y83.049 E8.17243
G1 X91.074 Y83.141 E8.32534
G1 X91.294 Y83.203 E8.38205
G1 X91.636 Y83.352 E8.47411
G1 X92.057 Y83.595 E8.59456
G1 X92.339 Y83.819 E8.68356
G1 X92.628 Y84.126 E8.78772
G1 X92.756 Y84.287 E8.8386
G1 X93.002 Y84.656 E8.94814
G1 X93.114 Y84.865 E9.00687
G1 X93.393 Y85.531 E9.18545
G1 X93.646 Y86.381 E9.40479
G1 X93.782 Y87.182 E9.60556
G1 X93.785 Y87.229 E9.61727
G1 X94.544 Y85.929 E9.98947
G1 X94.324 Y85.191 E10.17991
G1 X94.024 Y84.471 E10.37279
G1 X93.894 Y84.217 E10.44327
G1 X93.575 Y83.728 E10.58762
G1 X93.411 Y83.517 E10.65377
G1 X93.024 Y83.102 E10.79416
G1 X92.719 Y82.848 E10.8921
G1 X92.57 Y82.747 E10.93661
G1 X91.991 Y82.421 E11.10098
G1 X91.697 Y82.294 E11.18015
G1 X91.369 Y82.192 E11.26518
G1 X90.773 Y82.084 E11.415
G1 X90.447 Y82.056 E11.49582
G1 X87.726 Y82.068 E12.16861
G1 X88.928 Y81.071 E12.55478
G1 X90.437 Y81.065 E12.92785
G1 X90.828 Y81.091 E13.02483
G1 X91.447 Y81.194 E13.17992
G1 X91.876 Y81.308 E13.28974
G1 X92.106 Y81.39 E13.34995
G1 X92.56 Y81.598 E13.47363
G1 X93.137 Y81.932 E13.6383
G1 X93.54 Y82.234 E13.76294
G1 X93.753 Y82.429 E13.83414
G1 X94.11 Y82.81 E13.9634
G1 X94.324 Y83.073 E14.04735
G1 X94.666 Y83.58 E14.19839
G92 E0
;WIPE_START
G1 F8640
G1 X94.324 Y83.073 E-0.14104
G1 X94.11 Y82.81 E-0.21945
G1 X93.753 Y82.429 E-0.34015
G1 X93.54 Y82.234 E-0.40664
G1 X93.137 Y81.932 E-0.52303
G1 X92.56 Y81.598 E-0.6768
G1 X92.106 Y81.39 E-0.79229
G1 X91.876 Y81.308 E-0.84853
G1 X91.452 Y81.195 E-0.95
;WIPE_END
G1 E-1 F2100
; acceleration to travel
M204 S1500
G1 X86.181 Y81.906 F10800
; decel to extrusion
M204 S1000
G1 X84.891 Y82.08
; end travel
G1 E0 F2100
G1 F1513.2577
G1 X84.206 Y82.083 E0.16936
G1 X84.08 Y82.073 E0.20073
G1 X83.605 Y82.083 E0.31824
G1 X83.271 Y82.136 E0.40183
G1 X82.586 Y82.346 E0.57902
G1 X82.185 Y82.529 E0.68785
G1 X82.014 Y82.631 E0.73729
G1 X81.369 Y83.103 E0.93476
G1 X81.023 Y83.465 E1.05867
G1 X80.631 Y84.014 E1.22525
G1 X80.529 Y84.185 E1.27469
G1 X80.333 Y84.623 E1.39337
G1 X80.121 Y85.337 E1.57737
G1 X80.083 Y85.605 E1.64428
G1 X80.073 Y86.08 E1.76178
G1 X80.084 Y86.214 E1.79516
G1 X80.084 Y88.411 E2.33833
G1 X79.093 Y87.107 E2.74328
G1 X79.093 Y86.272 E2.94999
G1 X79.082 Y86.076 E2.9985
G1 X79.095 Y85.533 E3.13271
G1 X79.145 Y85.164 E3.22468
G1 X79.387 Y84.326 E3.44037
G1 X79.511 Y84.01 E3.5244
G1 X79.653 Y83.723 E3.60361
G1 X79.806 Y83.465 E3.67777
G1 X80.258 Y82.834 E3.86981
G1 X80.423 Y82.645 E3.93175
G1 X80.722 Y82.353 E4.03509
G1 X80.916 Y82.194 E4.09703
G1 X81.448 Y81.817 E4.25834
G1 X81.74 Y81.643 E4.34237
G1 X82.143 Y81.462 E4.45153
G92 E0
;WIPE_START
G1 F8640
G1 X81.74 Y81.643 E-0.10194
G1 X81.448 Y81.817 E-0.18041
G1 X80.916 Y82.194 E-0.33104
G1 X80.722 Y82.353 E-0.38889
G1 X80.423 Y82.645 E-0.48538
G1 X80.258 Y82.834 E-0.54322
G1 X79.806 Y83.465 E-0.72256
G1 X79.653 Y83.723 E-0.79181
G1 X79.511 Y84.01 E-0.86578
G1 X79.387 Y84.326 E-0.94425
G1 X79.38 Y84.35 E-0.95
;WIPE_END
G1 E-1 F2100
; acceleration to travel
M204 S1500
G1 X116.087 Y84.121 F10800
; decel to extrusion
M204 S1000
G1 X125.073 Y84.064
; end travel
G1 E0 F2100
G1 F1513.2577
G1 X125.309 Y83.619 E0.12462
G1 X125.785 Y82.944 E0.32885
G1 X125.927 Y82.769 E0.38468
G1 X126.189 Y82.492 E0.47891
G1 X126.536 Y82.184 E0.59368
G1 X126.742 Y82.028 E0.65747
G1 X127.425 Y81.606 E0.85605
G1 X127.64 Y81.503 E0.91498
G1 X128.088 Y81.329 E1.0337
G1 X128.444 Y81.227 E1.12544
G1 X128.974 Y81.121 E1.25906
G1 X129.519 Y81.066 E1.39453
G1 X130.631 Y81.071 E1.66945
G1 X131.991 Y82.067 E2.08625
G1 X129.546 Y82.057 E2.69073
G1 X129.15 Y82.097 E2.78926
G1 X128.666 Y82.193 E2.91111
G1 X128.311 Y82.301 E3.00282
G1 X127.855 Y82.5 E3.12584
G1 X127.509 Y82.709 E3.22591
G1 X127.171 Y82.946 E3.32799
G1 X126.879 Y83.203 E3.42417
G1 X126.648 Y83.451 E3.50793
G1 X126.149 Y84.145 E3.71926
G1 X125.978 Y84.466 E3.80917
G1 X125.625 Y85.34 E4.04229
G1 X125.384 Y86.174 E4.2569
G1 X125.362 Y86.302 E4.28904
G1 X126.196 Y87.555 E4.66139
G1 X126.218 Y87.182 E4.75394
G1 X126.354 Y86.381 E4.9547
G1 X126.581 Y85.605 E5.15458
G1 X126.887 Y84.862 E5.35345
G1 X127.023 Y84.618 E5.42261
G1 X127.375 Y84.129 E5.57147
G1 X127.524 Y83.959 E5.62732
G1 X127.866 Y83.661 E5.7397
G1 X128.408 Y83.331 E5.89644
G1 X128.672 Y83.225 E5.96681
G1 X128.894 Y83.158 E6.02414
G1 X129.331 Y83.071 E6.13431
G1 X129.579 Y83.047 E6.19591
G1 X132.623 Y83.061 E6.9486
G1 X132.926 Y83.062 E7.02358
G1 X136.043 Y83.076 E7.79429
G1 X136.647 Y83.142 E7.94454
G1 X136.875 Y83.199 E8.00244
G1 X137.169 Y83.311 E8.08031
G1 X137.421 Y83.452 E8.15191
G1 X138.08 Y83.941 E8.35466
G1 X138.375 Y84.266 E8.46332
G1 X138.615 Y84.691 E8.58396
G1 X138.82 Y85.179 E8.71477
G1 X138.915 Y85.654 E8.83449
G1 X138.916 Y87.872 E9.38299
G1 X137.925 Y88.405 E9.66125
G1 X137.923 Y85.703 E10.32951
G1 X137.886 Y85.512 E10.37756
G1 X137.744 Y85.169 E10.46942
G1 X137.588 Y84.871 E10.55245
G1 X137.444 Y84.704 E10.60693
G1 X136.859 Y84.27 E10.78715
G1 X136.732 Y84.201 E10.82299
G1 X136.451 Y84.114 E10.89567
G1 X135.999 Y84.067 E11.00794
G1 X129.6 Y84.039 E12.59037
G1 X129.111 Y84.126 E12.71321
G1 X128.813 Y84.237 E12.79165
G1 X128.44 Y84.47 E12.90057
G1 X128.163 Y84.73 E12.99436
G1 X127.845 Y85.173 E13.12931
G1 X127.79 Y85.271 E13.15701
G1 X127.518 Y85.927 E13.33272
G1 X127.322 Y86.596 E13.50505
G1 X127.204 Y87.283 E13.67731
G1 X127.167 Y87.978 E13.84957
G1 X127.182 Y88.246 E13.91587
G92 E0
;WIPE_START
G1 F8640
G1 X127.167 Y87.978 E-0.06191
G1 X127.204 Y87.283 E-0.22277
G1 X127.322 Y86.596 E-0.38363
G1 X127.518 Y85.927 E-0.54456
G1 X127.79 Y85.271 E-0.70865
G1 X127.845 Y85.173 E-0.73451
G1 X128.163 Y84.73 E-0.86053
G1 X128.44 Y84.47 E-0.94812
G1 X128.447 Y84.466 E-0.95
;WIPE_END
G1 E-1 F2100
; acceleration to travel
M204 S1500
G1 X137.651 Y86.375 F10800
; decel to extrusion
M204 S1000
G1 X139.904 Y86.842
; end travel
G1 E0 F2100
G1 F1513.2577
G1 X139.903 Y85.581 E0.31196
G1 X139.882 Y85.388 E0.35987
G1 X139.816 Y85.055 E0.44386
G1 X139.746 Y84.823 E0.50373
G1 X139.504 Y84.253 E0.65701
G1 X139.299 Y83.867 E0.7649
G1 X139.178 Y83.684 E0.81918
G1 X138.893 Y83.349 E0.92793
G1 X138.693 Y83.162 E0.99574
G1 X137.968 Y82.625 E1.21868
G1 X137.622 Y82.429 E1.3171
G1 X137.198 Y82.261 E1.42985
G1 X136.858 Y82.173 E1.51667
G1 X136.252 Y82.097 E1.66778
G1 X136.028 Y82.084 E1.72322
G1 X133.544 Y82.074 E2.3374
G1 X134.816 Y81.089 E2.73503
G1 X136.115 Y81.095 E3.05624
G1 X136.889 Y81.172 E3.2486
G1 X137.346 Y81.271 E3.36434
G1 X137.87 Y81.453 E3.50136
G1 X138.322 Y81.68 E3.62659
G1 X138.582 Y81.845 E3.7026
G1 X139.4 Y82.462 E3.95608
G1 X139.617 Y82.672 E4.0307
G1 X139.905 Y83.004 E4.13946
G1 X140.097 Y83.272 E4.22085
G1 X140.402 Y83.833 E4.37873
G1 X140.49 Y84.041 E4.43458
G92 E0
;WIPE_START
G1 F8640
G1 X140.402 Y83.833 E-0.05215
G1 X140.097 Y83.272 E-0.19958
G1 X139.905 Y83.004 E-0.27558
G1 X139.617 Y82.672 E-0.37715
G1 X139.4 Y82.462 E-0.44683
G1 X138.582 Y81.845 E-0.68354
G1 X138.322 Y81.68 E-0.75452
G1 X137.87 Y81.453 E-0.87146
G1 X137.548 Y81.341 E-0.95
;WIPE_END
G1 E-1 F2100
; acceleration to travel
M204 S1500
G1 X137.856 Y98.746 F10800
; decel to extrusion
M204 S1000
G1 X137.931 Y103.006
; end travel
G1 E0 F2100
G1 F1513.2577
G1 X137.933 Y106.865 E0.95405
G1 X137.353 Y107.446 E1.15716
G1 X133.494 Y107.446 E2.11121
G1 X133.752 Y108.437 E2.36444
G1 X137.55 Y108.437 E3.3036
G1 X137.914 Y108.286 E3.40113
G1 X138.774 Y107.426 E3.70178
G1 X138.925 Y107.061 E3.79932
G1 X138.923 Y103.263 E4.73848
G1 X139.914 Y103.84 E5.02208
G1 X139.916 Y107.159 E5.84256
G1 X139.878 Y107.35 E5.89085
G1 X139.652 Y107.895 E6.03668
G1 X139.544 Y108.058 E6.08498
G1 X138.546 Y109.056 E6.43392
G1 X138.384 Y109.164 E6.48222
G1 X137.839 Y109.39 E6.62805
G1 X137.647 Y109.428 E6.67634
G1 X134.329 Y109.428 E7.49676
G1 X135.43 Y110.419 E7.86303
G1 X137.696 Y110.419 E8.42331
