; generated by SuperSlicer 2.5.59 on 2023-11-20 at 19:58:55 UTC

; 

; external perimeters extrusion width = 1.12mm
; perimeters extrusion width = 1.12mm
; infill extrusion width = 1.12mm
; solid infill extrusion width = 1.12mm
; top infill extrusion width = 1.12mm
; first layer extrusion width = 1.12mm

; external perimeters extrusion width = 1.12mm
; perimeters extrusion width = 1.12mm
; infill extrusion width = 1.12mm
; solid infill extrusion width = 1.12mm
; top infill extrusion width = 1.12mm
; first layer extrusion width = 1.12mm

; external perimeters extrusion width = 1.12mm
; perimeters extrusion width = 1.12mm
; infill extrusion width = 1.12mm
; solid infill extrusion width = 1.12mm
; top infill extrusion width = 1.12mm
; first layer extrusion width = 1.12mm

; external perimeters extrusion width = 1.12mm
; perimeters extrusion width = 1.12mm
; infill extrusion width = 1.12mm
; solid infill extrusion width = 1.12mm
; top infill extrusion width = 1.12mm
; first layer extrusion width = 1.12mm

; external perimeters extrusion width = 1.12mm
; perimeters extrusion width = 1.12mm
; infill extrusion width = 1.12mm
; solid infill extrusion width = 1.12mm
; top infill extrusion width = 1.12mm
; first layer extrusion width = 1.12mm

; external perimeters extrusion width = 1.12mm
; perimeters extrusion width = 1.12mm
; infill extrusion width = 1.12mm
; solid infill extrusion width = 1.12mm
; top infill extrusion width = 1.12mm
; first layer extrusion width = 1.12mm

; external perimeters extrusion width = 1.12mm
; perimeters extrusion width = 1.12mm
; infill extrusion width = 1.12mm
; solid infill extrusion width = 1.12mm
; top infill extrusion width = 1.12mm
; first layer extrusion width = 1.12mm

; external perimeters extrusion width = 1.12mm
; perimeters extrusion width = 1.12mm
; infill extrusion width = 1.12mm
; solid infill extrusion width = 1.12mm
; top infill extrusion width = 1.12mm
; first layer extrusion width = 1.12mm

; external perimeters extrusion width = 1.12mm
; perimeters extrusion width = 1.12mm
; infill extrusion width = 1.12mm
; solid infill extrusion width = 1.12mm
; top infill extrusion width = 1.12mm
; first layer extrusion width = 1.12mm

; external perimeters extrusion width = 1.12mm
; perimeters extrusion width = 1.12mm
; infill extrusion width = 1.12mm
; solid infill extrusion width = 1.12mm
; top infill extrusion width = 1.12mm
; first layer extrusion width = 1.12mm

; external perimeters extrusion width = 1.12mm
; perimeters extrusion width = 1.12mm
; infill extrusion width = 1.12mm
; solid infill extrusion width = 1.12mm
; top infill extrusion width = 1.12mm
; first layer extrusion width = 1.12mm

; external perimeters extrusion width = 1.12mm
; perimeters extrusion width = 1.12mm
; infill extrusion width = 1.12mm
; solid infill extrusion width = 1.12mm
; top infill extrusion width = 1.12mm
; first layer extrusion width = 1.12mm

; external perimeters extrusion width = 1.12mm
; perimeters extrusion width = 1.12mm
; infill extrusion width = 1.12mm
; solid infill extrusion width = 1.12mm
; top infill extrusion width = 1.12mm
; first layer extrusion width = 1.12mm

; external perimeters extrusion width = 1.12mm
; perimeters extrusion width = 1.12mm
; infill extrusion width = 1.12mm
; solid infill extrusion width = 1.12mm
; top infill extrusion width = 1.12mm
; first layer extrusion width = 1.12mm

; external perimeters extrusion width = 1.12mm
; perimeters extrusion width = 1.12mm
; infill extrusion width = 1.12mm
; solid infill extrusion width = 1.12mm
; top infill extrusion width = 1.12mm
; first layer extrusion width = 1.12mm

; external perimeters extrusion width = 1.12mm
; perimeters extrusion width = 1.12mm
; infill extrusion width = 1.12mm
; solid infill extrusion width = 1.12mm
; top infill extrusion width = 1.12mm
; first layer extrusion width = 1.12mm

; external perimeters extrusion width = 1.12mm
; perimeters extrusion width = 1.12mm
; infill extrusion width = 1.12mm
; solid infill extrusion width = 1.12mm
; top infill extrusion width = 1.12mm
; first layer extrusion width = 1.12mm

; object:{"name":"retraction_calibration","id":"retraction_calibration id:0 copy 0","object_center":[109.996400,109.999700,0.000000],"boundingbox_center":[109.996400,109.999700,15.400000],"boundingbox_size":[53.610802,53.612801,30.800000]}
EXCLUDE_OBJECT_DEFINE NAME=retraction_calibration_id_0_copy_0 CENTER=109.996400,109.999700 POLYGON=[[83.190992,88.741304],[83.231600,88.174696],[83.233600,88.159504],[83.330400,87.592104],[83.479992,87.043304],[83.487400,87.020304],[83.680408,86.517704],[83.929600,86.019104],[83.960000,85.965696],[84.225208,85.551304],[84.557800,85.125304],[84.564400,85.117512],[84.944792,84.721104],[85.300800,84.413496],[85.412000,84.327696],[85.921800,83.987504],[86.167000,83.851104],[86.469608,83.704104],[87.050800,83.480496],[87.131192,83.455104],[87.659600,83.319304],[88.164792,83.236704],[88.290600,83.222904],[88.937400,83.193296],[131.362400,83.198896],[131.821592,83.235904],[131.941800,83.251504],[132.506192,83.358104],[132.976000,83.491696],[133.050992,83.517104],[133.571992,83.726704],[134.030592,83.964304],[134.065200,83.984496],[134.527008,84.288296],[134.626000,84.362504],[134.855584,84.548704],[135.162992,84.833296],[135.569792,85.288496],[135.924000,85.787304],[135.945008,85.820704],[136.222816,86.325504],[136.462608,86.898304],[136.487600,86.969904],[136.640592,87.500304],[136.754400,88.126096],[136.767792,88.241504],[136.801808,88.769304],[136.797392,131.366696],[136.760400,131.825896],[136.744800,131.946104],[136.638192,132.510496],[136.504608,132.980304],[136.479200,133.055296],[136.269600,133.576296],[136.032000,134.034896],[136.011792,134.069504],[135.708016,134.531312],[135.633808,134.630304],[135.447600,134.859888],[135.162992,135.167296],[134.707792,135.574096],[134.209000,135.928304],[134.175600,135.949312],[133.670808,136.227120],[133.097992,136.466912],[133.026400,136.491904],[132.496000,136.644896],[131.870208,136.758704],[131.754792,136.772096],[131.227008,136.806112],[89.384800,136.788496],[88.263200,136.774896],[88.170392,136.764704],[87.102800,136.536704],[87.016000,136.508912],[86.039000,136.080304],[85.961392,136.036304],[85.188200,135.495696],[85.121000,135.438512],[84.464008,134.763904],[84.409192,134.695488],[83.888200,133.906496],[83.846800,133.829304],[83.477200,132.949096],[83.450800,132.865096],[83.243600,131.919496],[83.232400,131.831496],[83.194000,130.848096],[83.190992,88.741304]]
; plater:{"center":[109.996400,109.999700,0.000000],"boundingbox_center":[109.996400,109.999700,15.400000],"boundingbox_size":[53.610802,53.612801,30.800000]}

;TYPE:Custom
SET_PRINT_STATS_INFO TOTAL_LAYER=77
START_PRINT BED_TEMP=55 EXTRUDER_TEMP=225
; Filament gcode
;_TOOLCHANGE 0
M107
;LAYER_CHANGE
;Z:0.4
;HEIGHT:0.4
;BEFORE_LAYER_CHANGE
;0.4


G1 Z0.4 F10800
;AFTER_LAYER_CHANGE
;0.4
SET_PRINT_STATS_INFO CURRENT_LAYER=1
G1 E-0.5 F2100
M204 S1000
G1 X83.078 Y83.611 F10800
G1 E0 F2100
;TYPE:Skirt
;WIDTH:1.04
M107
G1 F1800
G1 X82.28 Y84.601 E0.20185
G1 X81.308 Y86.365 E0.52128
G1 X80.628 Y89.029 E0.95764
G1 X80.581 Y129.576 E7.39143
G1 X80.734 Y131.707 E7.73051
G1 X81.308 Y133.635 E8.04978
G1 X82.28 Y135.399 E8.36922
G1 X83.603 Y136.914 E8.68852
G1 X84.594 Y137.713 E8.89037
G1 X86.357 Y138.684 E9.20981
G1 X89.022 Y139.364 E9.64616
G1 X130.616 Y139.394 E16.24623
G1 X132.554 Y139.06 E16.55831
G1 X134.382 Y138.329 E16.87064
G1 X136.018 Y137.234 E17.18298
G1 X137.39 Y135.824 E17.49517
G1 X138.735 Y133.494 E17.92205
G1 X139.27 Y131.601 E18.23431
G1 X139.419 Y130 E18.48943
G1 X139.419 Y90 E24.83647
G1 X139.27 Y88.399 E25.09159
G1 X138.439 Y85.842 E25.51826
G1 X137.817 Y84.765 E25.71563
G1 X136.557 Y83.252 E26.02809
G1 X134.382 Y81.671 E26.4548
G1 X132.554 Y80.94 E26.76713
G1 X130.616 Y80.606 E27.07921
G1 X89.022 Y80.636 E33.67928
G1 X87.053 Y81.057 E33.99872
G1 X85.22 Y81.885 E34.31795
G1 X83.172 Y83.536 E34.73533
M107
M104 S215 ; set temperature
G92 E0
;WIPE_START
G1 F8640
G1 X84.773 Y82.245 E-0.475
;WIPE_END
G1 E-0.5 F2100
; printing object retraction_calibration id:0 copy 0
EXCLUDE_OBJECT_START NAME=retraction_calibration_id_0_copy_0
; acceleration to travel
M204 S1500
G1 X122.188 Y118.425 F10800
; decel to extrusion
M204 S800
G1 X129.577 Y125.57
; end travel
G1 E0 F2100
;TYPE:Internal perimeter
;WIDTH:1.12
M107
G1 F1800
G1 X130.814 Y125.69 E0.21369
G1 X131.631 Y125.97 E0.36227
G1 X132.408 Y126.385 E0.51367
G1 X133.067 Y126.926 E0.66029
G1 X133.608 Y127.584 E0.80687
G1 X134.009 Y128.336 E0.95347
G1 X134.257 Y129.152 E1.10006
G1 X134.298 Y129.566 E1.17171
G1 X134.34 Y129.994 E1.24568
G1 X134.244 Y130.904 E1.4029
G1 X133.963 Y131.768 E1.55923
G1 X133.509 Y132.555 E1.71549
G1 X132.901 Y133.23 E1.87176
G1 X132.166 Y133.765 E2.02808
G1 X131.336 Y134.134 E2.18434
G1 X130.447 Y134.323 E2.34063
G1 X129.538 Y134.323 E2.49692
G1 X128.649 Y134.134 E2.6532
G1 X127.819 Y133.765 E2.80947
G1 X127.084 Y133.23 E2.96578
G1 X126.476 Y132.555 E3.12205
G1 X126.016 Y131.758 E3.28031
G1 X125.714 Y130.874 E3.44093
G1 X125.553 Y129.655 E3.65235
G1 X125.894 Y128.47 E3.8645
G1 X126.346 Y127.631 E4.02841
G1 X126.919 Y126.926 E4.1846
G1 X127.623 Y126.353 E4.34078
G1 X128.43 Y125.919 E4.49843
G1 X129.463 Y125.605 E4.68398
M107
G92 E0
;WIPE_START
G1 F8640
M204 S1000
G1 X128.43 Y125.919 E-0.24912
G1 X127.623 Y126.353 E-0.46078
G1 X127.575 Y126.392 E-0.475
;WIPE_END
G1 E-0.5 F2100
; acceleration to travel
M204 S1500
G1 X129.253 Y124.633 F10800
; decel to extrusion
M204 S800
G1 X129.584 Y124.285
; end travel
G1 E0 F2100
;TYPE:External perimeter
M107
G1 F1800
G1 X129.673 Y124.453 E0.03261
G1 X129.895 Y124.553 E0.07454
G1 X131.039 Y124.674 E0.2723
G1 X132.045 Y125.018 E0.4553
G1 X132.985 Y125.521 E0.63859
G1 X133.802 Y126.191 E0.82022
G1 X134.472 Y127.007 E1.00184
G1 X134.969 Y127.938 E1.18346
G1 X135.276 Y128.949 E1.36509
G1 X135.327 Y129.465 E1.45427
M107
;WIDTH:1.079863
M107
G1 X135.379 Y129.998 E1.54277
G1 X135.261 Y131.12 E1.72926
G1 X134.913 Y132.191 E1.91543
G1 X134.35 Y133.166 E2.10158
G1 X133.597 Y134.003 E2.28772
G1 X132.686 Y134.665 E2.47389
G1 X131.657 Y135.123 E2.66003
G1 X130.555 Y135.357 E2.84619
G1 X129.429 Y135.357 E3.03235
G1 X128.328 Y135.123 E3.21851
G1 X127.299 Y134.665 E3.40466
G1 X126.388 Y134.003 E3.59083
G1 X125.635 Y133.166 E3.77697
G1 X125.069 Y132.187 E3.9638
G1 X124.702 Y131.11 E4.152
G1 X124.544 Y129.89 E4.35526
G1 X124.44 Y129.675 E4.39485
G1 X124.275 Y129.589 E4.42558
M107
;WIDTH:1.006839
M107
G1 X124.11 Y129.503 E4.45405
G1 X124.287 Y129.447 E4.48252
M107
;WIDTH:1.082423
M107
G1 X124.464 Y129.391 E4.51333
G1 X124.607 Y129.181 E4.55536
G1 X124.945 Y128.05 E4.75095
G1 X125.482 Y127.054 E4.93842
G1 X126.183 Y126.191 E5.12283
G1 X127.047 Y125.489 E5.30723
G1 X128.032 Y124.959 E5.49269
G1 X129.184 Y124.612 E5.69213
G1 X129.378 Y124.478 E5.73115
G1 X129.437 Y124.298 E5.76257
M107
;WIDTH:1.006841
M107
G1 X129.496 Y124.118 E5.79161
G1 X129.528 Y124.179 E5.80228
M107
;WIPE_START
M204 S1000
G1 X129.158 Y124.962 F10800
;WIPE_END
G92 E0
;WIPE_START
G1 F8640
G1 X129.558 Y124.84 E-0.09657
G1 X129.79 Y124.944 E-0.15518
G1 X130.952 Y125.067 E-0.42503
G1 X131.157 Y125.137 E-0.475
;WIPE_END
G1 E-0.5 F2100
; acceleration to travel
M204 S1500
G1 X125.272 Y128.783 F10800
; decel to extrusion
M204 S800
G1 X124.11 Y129.503
; end travel
G1 E0 F2100
;WIDTH:1.00343
M107
G1 F1800
G1 X119.952 Y129.5 E0.63442
M107
G92 E0
;WIPE_START
G1 F8640
M204 S1000
G1 X122.01 Y129.502 E-0.475
;WIPE_END
G1 E-0.5 F2100
; acceleration to travel
M204 S1500
G1 X103.723 Y129.497 F10800
; decel to extrusion
M204 S800
G1 X100.112 Y129.497
; end travel
G1 E0 F2100
;WIDTH:1.003484
M107
G1 F1800
G1 X95.875 Y129.503 E0.64663
M107
G92 E0
;WIPE_START
G1 F8640
M204 S1000
G1 X97.932 Y129.5 E-0.475
;WIPE_END
G1 E-0.5 F2100
; acceleration to travel
M204 S1500
G1 X95.001 Y129.571 F10800
; decel to extrusion
M204 S800
G1 X94.422 Y129.585
; end travel
G1 E0 F2100
;TYPE:Internal perimeter
;WIDTH:1.12
M107
G1 F1800
G1 X94.35 Y130.36 E0.13388
G1 X94.278 Y130.856 E0.21999
G1 X93.951 Y131.796 E0.39129
G1 X93.472 Y132.605 E0.55291
G1 X92.839 Y133.285 E0.71271
G1 X92.075 Y133.815 E0.87253
G1 X91.217 Y134.17 E1.03235
G1 X90.302 Y134.335 E1.19214
G1 X89.374 Y134.302 E1.35192
G1 X88.473 Y134.072 E1.51177
G1 X87.643 Y133.656 E1.67156
G1 X86.919 Y133.073 E1.83137
G1 X86.336 Y132.35 E1.99119
G1 X85.92 Y131.519 E2.15098
G1 X85.69 Y130.618 E2.31083
G1 X85.657 Y129.69 E2.4706
G1 X85.822 Y128.776 E2.63039
G1 X86.178 Y127.917 E2.79021
G1 X86.708 Y127.154 E2.95003
G1 X87.388 Y126.521 E3.10984
G1 X88.196 Y126.041 E3.27145
G1 X89.098 Y125.728 E3.43561
G1 X90.367 Y125.553 E3.65591
G1 X91.522 Y125.901 E3.86355
G1 X92.362 Y126.353 E4.02746
G1 X93.066 Y126.926 E4.18365
G1 X93.639 Y127.631 E4.33983
G1 X94.074 Y128.438 E4.49748
G1 X94.387 Y129.47 E4.68302
M107
G92 E0
;WIPE_START
G1 F8640
M204 S1000
G1 X94.074 Y128.438 E-0.24911
G1 X93.639 Y127.631 E-0.46077
G1 X93.6 Y127.583 E-0.475
;WIPE_END
G1 E-0.5 F2100
; acceleration to travel
M204 S1500
G1 X91.002 Y124.689 F10800
; decel to extrusion
M204 S800
G1 X90.489 Y124.118
; end travel
G1 E0 F2100
;TYPE:External perimeter
;WIDTH:1.003434
M107
G1 F1800
G1 X90.489 Y95.883 E4.30842
M107
G92 E0
;WIPE_START
G1 F8640
M204 S1000
G1 X90.489 Y97.941 E-0.475
;WIPE_END
G1 E-0.5 F2100
; acceleration to travel
M204 S1500
G1 X90.421 Y95.009 F10800
; decel to extrusion
M204 S800
G1 X90.407 Y94.43
; end travel
G1 E0 F2100
;TYPE:Internal perimeter
;WIDTH:1.12
M107
G1 F1800
G1 X89.632 Y94.358 E0.13388
G1 X89.137 Y94.286 E0.21999
G1 X88.196 Y93.959 E0.39129
G1 X87.388 Y93.479 E0.55291
G1 X86.708 Y92.846 E0.71271
G1 X86.178 Y92.083 E0.87253
G1 X85.822 Y91.224 E1.03235
G1 X85.657 Y90.31 E1.19215
G1 X85.69 Y89.382 E1.35192
G1 X85.92 Y88.481 E1.51177
G1 X86.336 Y87.65 E1.67156
G1 X86.919 Y86.927 E1.83137
G1 X87.643 Y86.344 E1.99119
G1 X88.473 Y85.928 E2.15098
G1 X89.374 Y85.698 E2.31083
G1 X90.302 Y85.665 E2.4706
G1 X91.217 Y85.83 E2.63039
G1 X92.075 Y86.185 E2.79021
G1 X92.839 Y86.715 E2.95004
G1 X93.472 Y87.395 E3.10984
G1 X93.951 Y88.204 E3.27145
G1 X94.265 Y89.105 E3.43561
G1 X94.44 Y90.374 E3.65591
G1 X94.091 Y91.53 E3.86355
G1 X93.639 Y92.369 E4.02746
G1 X93.066 Y93.074 E4.18365
G1 X92.362 Y93.647 E4.33983
G1 X91.554 Y94.081 E4.49748
G1 X90.522 Y94.395 E4.68302
M107
G92 E0
;WIPE_START
G1 F8640
M204 S1000
G1 X91.554 Y94.081 E-0.24911
G1 X92.362 Y93.647 E-0.46077
G1 X92.409 Y93.608 E-0.475
;WIPE_END
G1 E-0.5 F2100
; acceleration to travel
M204 S1500
G1 X95.304 Y91.01 F10800
; decel to extrusion
M204 S800
G1 X95.876 Y90.497
; end travel
G1 E0 F2100
;TYPE:External perimeter
;WIDTH:1.003349
M107
G1 F1800
G1 X100.033 Y90.5 E0.63436
M107
G92 E0
;WIPE_START
G1 F8640
M204 S1000
G1 X97.976 Y90.498 E-0.475
;WIPE_END
G1 E-0.5 F2100
; acceleration to travel
M204 S1500
G1 X96.075 Y90.543 F10800
; decel to extrusion
M204 S800
G1 X95.7 Y90.552
; end travel
G1 E0 F2100
;WIDTH:1.082542
M107
G1 F1800
G1 X95.523 Y90.608 E0.03064
G1 X95.378 Y90.819 E0.07319
G1 X95.04 Y91.95 E0.2688
G1 X94.503 Y92.946 E0.45629
G1 X93.801 Y93.809 E0.64072
G1 X92.938 Y94.511 E0.82515
G1 X91.953 Y95.041 E1.01062
G1 X90.8 Y95.388 E1.21009
G1 X90.607 Y95.522 E1.2491
G1 X90.548 Y95.703 E1.28062
M107
;WIDTH:1.006677
M107
G1 X90.489 Y95.883 E1.30973
G1 X90.401 Y95.715 E1.33885
M107
;WIDTH:1.078941
M107
G1 X90.312 Y95.547 E1.37025
G1 X90.091 Y95.447 E1.41034
G1 X89.522 Y95.386 E1.50482
G1 X88.871 Y95.288 E1.61359
G1 X87.758 Y94.902 E1.80809
G1 X86.764 Y94.312 E1.99889
G1 X85.922 Y93.527 E2.18908
G1 X85.265 Y92.581 E2.37927
G1 X84.824 Y91.518 E2.56947
G1 X84.62 Y90.384 E2.75965
G1 X84.661 Y89.234 E2.94981
G1 X84.946 Y88.118 E3.14003
G1 X85.461 Y87.088 E3.3302
G1 X86.184 Y86.191 E3.5204
G1 X87.08 Y85.469 E3.71059
G1 X88.11 Y84.953 E3.90076
G1 X89.226 Y84.668 E4.09098
G1 X90.377 Y84.627 E4.28115
G1 X91.51 Y84.832 E4.47133
G1 X92.574 Y85.272 E4.66152
G1 X93.52 Y85.929 E4.85172
G1 X94.305 Y86.772 E5.0419
G1 X94.894 Y87.766 E5.2327
G1 X95.276 Y88.865 E5.42492
G1 X95.441 Y90.111 E5.63248
G1 X95.547 Y90.328 E5.67231
G1 X95.711 Y90.412 E5.70284
M107
